; generated by Slic3r Prusa Edition 1.39.2 on 2018-12-27 at 02:45:28

; 

; external perimeters extrusion width = 0.45mm
; perimeters extrusion width = 0.45mm
; infill extrusion width = 0.45mm
; solid infill extrusion width = 0.45mm
; top infill extrusion width = 0.40mm
; first layer extrusion width = 0.42mm

M107
M115 U3.1.3-RC1 ; tell printer latest fw version
M201 X1000 Y1000 Z200 E5000 ; sets maximum accelerations, mm/sec^2
M203 X200 Y200 Z12 E120 ; sets maximum feedrates, mm/sec
M204 S1250 T1250 ; sets acceleration (S) and retract acceleration (T)
M205 X10 Y10 Z0.4 E2.5 ; sets the jerk limits, mm/sec
M205 S0 T0 ; sets the minimum extruding and travel feed rate, mm/sec
M83  ; extruder relative mode
M104 S220 ; set extruder temp
M140 S60 ; set bed temp
M190 S60 ; wait for bed temp
M109 S220 ; wait for extruder temp
G28 W ; home all without mesh bed level
G80 ; mesh bed leveling
G1 Y-3.0 F1000.0 ; go outside print area
G92 E0.0
G1 X60.0 E9.0  F1000.0 ; intro line
G1 X100.0 E12.5  F1000.0 ; intro line
G92 E0.0
M221 S95
M900 K30; Filament gcode
G21 ; set units to millimeters
G90 ; use absolute coordinates
M83 ; use relative distances for extrusion
;BEFORE_LAYER_CHANGE
;0.2 (0)


G1 E-0.80000 F2100.00000
G1 Z0.600 F10200.000
;AFTER_LAYER_CHANGE
;0.2
G1 X39.873 Y16.259
G1 Z0.200
G1 E0.80000 F2100.00000
M204 S1000
G1 F1800
G1 X40.555 Y14.684 E0.05380
G1 X41.478 Y13.238 E0.05380
G1 X42.175 Y12.407 E0.03402
G1 X42.953 Y11.650 E0.03402
G1 X43.804 Y10.976 E0.03402
G1 X44.717 Y10.391 E0.03402
G1 X45.686 Y9.901 E0.03402
G1 X46.698 Y9.511 E0.03402
G1 X47.753 Y9.223 E0.03428
G1 X48.823 Y9.044 E0.03402
G1 X50.028 Y8.974 E0.03783
G1 X78.561 Y8.974 E0.89463
G1 X79.685 Y9.034 E0.03529
G1 X80.804 Y9.212 E0.03555
G1 X81.891 Y9.505 E0.03529
G1 X82.941 Y9.910 E0.03529
G1 X83.951 Y10.427 E0.03555
G1 X84.893 Y11.042 E0.03529
G1 X85.767 Y11.752 E0.03529
G1 X86.566 Y12.556 E0.03555
G1 X201.279 Y146.015 E5.51784
G1 X202.146 Y147.175 E0.04544
G1 X202.839 Y148.420 E0.04468
G1 X203.362 Y149.746 E0.04468
G1 X203.705 Y151.129 E0.04468
G1 X203.862 Y152.553 E0.04493
G1 X203.848 Y186.731 E1.07162
G1 X203.694 Y187.968 E0.03910
G1 X203.395 Y189.187 E0.03935
G1 X202.959 Y190.355 E0.03910
G1 X202.386 Y191.472 E0.03935
G1 X201.693 Y192.509 E0.03910
G1 X200.884 Y193.458 E0.03910
G1 X199.970 Y194.307 E0.03910
G1 X198.958 Y195.048 E0.03935
G1 X197.728 Y195.734 E0.04417
G1 X196.418 Y196.254 E0.04417
G1 X195.052 Y196.597 E0.04417
G1 X193.653 Y196.759 E0.04417
G1 X164.383 Y196.770 E0.91774
G1 X162.541 Y196.570 E0.05810
G1 X160.760 Y196.057 E0.05810
G1 X159.094 Y195.246 E0.05810
G1 X157.586 Y194.155 E0.05835
G1 X156.462 Y193.028 E0.04990
G1 X41.892 Y59.732 E5.51108
G1 X41.024 Y58.571 E0.04544
G1 X40.331 Y57.326 E0.04468
G1 X39.809 Y56.001 E0.04468
G1 X39.466 Y54.618 E0.04468
G1 X39.309 Y53.201 E0.04468
G1 X39.299 Y19.623 E1.05283
G1 X39.451 Y17.922 E0.05354
G1 X39.859 Y16.317 E0.05191
G1 X40.224 Y16.410 F10200.000
G1 F1800
G1 X40.893 Y14.851 E0.05321
G1 X41.789 Y13.452 E0.05210
G1 X42.466 Y12.649 E0.03292
G1 X43.220 Y11.918 E0.03292
G1 X44.044 Y11.267 E0.03292
G1 X44.930 Y10.704 E0.03292
G1 X45.868 Y10.232 E0.03292
G1 X46.849 Y9.858 E0.03292
G1 X47.863 Y9.585 E0.03292
G1 X48.900 Y9.415 E0.03292
G1 X50.027 Y9.351 E0.03542
G1 X78.561 Y9.351 E0.89464
G1 X79.649 Y9.409 E0.03417
G1 X80.725 Y9.581 E0.03417
G1 X81.777 Y9.865 E0.03417
G1 X82.794 Y10.257 E0.03417
G1 X83.764 Y10.754 E0.03417
G1 X84.676 Y11.350 E0.03417
G1 X85.521 Y12.039 E0.03417
G1 X86.294 Y12.818 E0.03442
G1 X200.993 Y146.260 E5.51716
G1 X201.826 Y147.375 E0.04364
G1 X202.500 Y148.584 E0.04339
G1 X203.004 Y149.864 E0.04314
G1 X203.336 Y151.207 E0.04339
G1 X203.486 Y152.583 E0.04339
G1 X203.473 Y186.686 E1.06930
G1 X203.327 Y187.879 E0.03766
G1 X203.041 Y189.053 E0.03791
G1 X202.621 Y190.187 E0.03791
G1 X202.072 Y191.264 E0.03791
G1 X201.405 Y192.263 E0.03766
G1 X200.623 Y193.185 E0.03791
G1 X199.738 Y194.009 E0.03791
G1 X198.764 Y194.725 E0.03791
G1 X197.570 Y195.392 E0.04289
G1 X196.306 Y195.894 E0.04264
G1 X194.979 Y196.227 E0.04289
G1 X193.620 Y196.383 E0.04289
G1 X164.403 Y196.393 E0.91609
G1 X162.617 Y196.201 E0.05632
G1 X160.891 Y195.703 E0.05632
G1 X159.277 Y194.915 E0.05632
G1 X157.822 Y193.861 E0.05632
G1 X156.748 Y192.783 E0.04772
G1 X42.183 Y59.492 E5.51082
G1 X41.344 Y58.372 E0.04388
G1 X40.671 Y57.163 E0.04339
G1 X40.167 Y55.883 E0.04314
G1 X39.836 Y54.547 E0.04314
G1 X39.685 Y53.172 E0.04339
G1 X39.676 Y19.625 E1.05185
G1 X39.824 Y17.978 E0.05185
G1 X40.209 Y16.468 E0.04884
G1 F8160
G1 X40.893 Y14.851 E-0.42937
G1 X41.622 Y13.712 E-0.33063
G1 E-0.04000 F2100.00000
G1 Z0.800 F10200.000
G1 X48.765 Y19.310
G1 Z0.200
G1 E0.80000 F2100.00000
G1 F1800
G1 X48.928 Y18.987 E0.01134
G1 X49.335 Y18.584 E0.01795
G1 X49.435 Y18.522 E0.00371
G1 X49.782 Y18.408 E0.01144
G1 X78.855 Y18.412 E0.91155
G1 X78.971 Y18.440 E0.00377
G1 X79.245 Y18.569 E0.00947
G1 X79.676 Y18.985 E0.01880
G1 X79.759 Y19.113 E0.00479
G1 X79.872 Y19.457 E0.01136
G1 X79.872 Y52.995 E1.05156
G1 X79.841 Y53.147 E0.00484
G1 X79.678 Y53.469 E0.01134
G1 X79.270 Y53.872 E0.01795
G1 X79.170 Y53.934 E0.00371
G1 X78.823 Y54.048 E0.01144
G1 X49.785 Y54.048 E0.91047
G1 X49.634 Y54.016 E0.00484
G1 X49.311 Y53.853 E0.01134
G1 X48.909 Y53.446 E0.01795
G1 X48.847 Y53.345 E0.00371
G1 X48.733 Y52.999 E0.01144
G1 X48.733 Y19.461 E1.05156
G1 X48.752 Y19.368 E0.00296
G1 X49.116 Y19.447 F10200.000
G1 F1800
G1 X49.220 Y19.228 E0.00757
G1 X49.563 Y18.885 E0.01522
G1 X49.817 Y18.785 E0.00856
G1 X78.802 Y18.785 E0.90882
G1 X79.053 Y18.895 E0.00856
G1 X79.396 Y19.238 E0.01522
G1 X79.495 Y19.493 E0.00856
G1 X79.495 Y52.978 E1.04991
G1 X79.386 Y53.228 E0.00856
G1 X79.043 Y53.571 E0.01522
G1 X78.788 Y53.671 E0.00856
G1 X49.803 Y53.671 E0.90882
G1 X49.553 Y53.561 E0.00856
G1 X49.209 Y53.218 E0.01522
G1 X49.110 Y52.964 E0.00856
G1 X49.110 Y19.506 E1.04905
G1 X49.516 Y19.465 F10200.000
G1 F1800
G1 X49.790 Y19.191 E0.01215
G1 X49.859 Y19.163 E0.00235
G1 X78.746 Y19.163 E0.90574
G1 X78.816 Y19.191 E0.00235
G1 X79.090 Y19.465 E0.01215
G1 X79.118 Y19.534 E0.00235
G1 X79.118 Y52.922 E1.04684
G1 X79.090 Y52.991 E0.00235
G1 X78.816 Y53.265 E0.01215
G1 X78.746 Y53.294 E0.00235
G1 X49.859 Y53.294 E0.90574
G1 X49.790 Y53.265 E0.00235
G1 X49.516 Y52.991 E0.01215
G1 X49.487 Y52.922 E0.00235
G1 X49.493 Y19.521 E1.04727
G1 X49.864 Y19.650 F10200.000
G1 F1800
G1 X49.975 Y19.540 E0.00490
G1 X78.631 Y19.540 E0.89849
G1 X78.741 Y19.650 E0.00490
G1 X78.741 Y52.806 E1.03959
G1 X78.631 Y52.917 E0.00490
G1 X49.975 Y52.917 E0.89849
G1 X49.864 Y52.806 E0.00490
G1 X49.864 Y19.710 E1.03771
G1 F8160
G1 X49.975 Y19.540 E-0.04965
G1 X52.880 Y19.540 E-0.71034
G1 E-0.04000 F2100.00000
G1 Z0.800 F10200.000
G1 X163.330 Y152.600
G1 Z0.200
G1 E0.80000 F2100.00000
G1 F1800
G1 X163.493 Y152.277 E0.01134
G1 X163.900 Y151.875 E0.01795
G1 X164.001 Y151.812 E0.00371
G1 X164.347 Y151.699 E0.01144
G1 X193.420 Y151.702 E0.91155
G1 X193.537 Y151.730 E0.00377
G1 X193.810 Y151.859 E0.00947
G1 X194.241 Y152.276 E0.01880
G1 X194.325 Y152.403 E0.00479
G1 X194.438 Y152.748 E0.01136
G1 X194.438 Y186.286 E1.05156
G1 X194.406 Y186.437 E0.00484
G1 X194.243 Y186.760 E0.01134
G1 X193.836 Y187.162 E0.01795
G1 X193.735 Y187.224 E0.00371
G1 X193.388 Y187.338 E0.01144
G1 X164.351 Y187.338 E0.91047
G1 X164.199 Y187.307 E0.00484
G1 X163.876 Y187.143 E0.01134
G1 X163.474 Y186.736 E0.01795
G1 X163.412 Y186.636 E0.00371
G1 X163.298 Y186.289 E0.01144
G1 X163.298 Y152.751 E1.05156
G1 X163.317 Y152.659 E0.00296
G1 X163.681 Y152.737 F10200.000
G1 F1800
G1 X163.785 Y152.518 E0.00757
G1 X164.128 Y152.175 E0.01522
G1 X164.382 Y152.076 E0.00856
G1 X193.368 Y152.076 E0.90882
G1 X193.618 Y152.185 E0.00856
G1 X193.961 Y152.528 E0.01522
G1 X194.061 Y152.783 E0.00856
G1 X194.061 Y186.268 E1.04991
G1 X193.951 Y186.518 E0.00856
G1 X193.608 Y186.862 E0.01522
G1 X193.353 Y186.961 E0.00856
G1 X164.368 Y186.961 E0.90882
G1 X164.118 Y186.852 E0.00856
G1 X163.775 Y186.508 E0.01522
G1 X163.675 Y186.254 E0.00856
G1 X163.675 Y152.796 E1.04905
G1 X164.081 Y152.755 F10200.000
G1 F1800
G1 X164.355 Y152.482 E0.01215
G1 X164.424 Y152.453 E0.00235
G1 X193.312 Y152.453 E0.90574
G1 X193.381 Y152.482 E0.00235
G1 X193.655 Y152.755 E0.01215
G1 X193.683 Y152.825 E0.00235
G1 X193.683 Y186.212 E1.04684
G1 X193.655 Y186.281 E0.00235
G1 X193.381 Y186.555 E0.01215
G1 X193.312 Y186.584 E0.00235
G1 X164.424 Y186.584 E0.90574
G1 X164.355 Y186.555 E0.00235
G1 X164.081 Y186.281 E0.01215
G1 X164.052 Y186.212 E0.00235
G1 X164.058 Y152.811 E1.04727
G1 X164.429 Y152.940 F10200.000
G1 F1800
G1 X164.540 Y152.830 E0.00490
G1 X193.196 Y152.830 E0.89849
G1 X193.306 Y152.940 E0.00490
G1 X193.306 Y186.097 E1.03959
G1 X193.196 Y186.207 E0.00490
G1 X164.540 Y186.207 E0.89849
G1 X164.429 Y186.097 E0.00490
G1 X164.429 Y153.000 E1.03771
G1 F8160
G1 X164.540 Y152.830 E-0.04965
G1 X167.445 Y152.830 E-0.71034
G1 E-0.04000 F2100.00000
G1 Z0.800 F10200.000
G1 X78.343 Y52.518
G1 Z0.200
G1 E0.80000 F2100.00000
G1 F1800
G1 X50.263 Y52.518 E0.88043
G1 X50.263 Y19.938 E1.02152
G1 X78.343 Y19.938 E0.88043
G1 X78.343 Y52.458 E1.01964
G1 X77.959 Y52.405 F10200.000
G1 X77.966 Y52.141
G1 F1800
G1 X50.640 Y52.141 E0.85678
G1 X50.640 Y20.315 E0.99788
G1 X77.966 Y20.315 E0.85678
G1 X77.966 Y52.081 E0.99600
G1 F8160
G1 X74.857 Y52.088 E-0.76000
G1 E-0.04000 F2100.00000
G1 Z0.800 F10200.000
G1 X51.517 Y52.028
G1 Z0.200
G1 E0.80000 F2100.00000
G1 F1800
G1 X50.923 Y51.434 E0.02639
G1 X50.923 Y50.900 E0.01679
G1 X51.881 Y51.858 E0.04259
G1 X52.416 Y51.858 E0.01679
G1 X50.923 Y50.365 E0.06633
G1 X50.923 Y49.831 E0.01679
G1 X52.950 Y51.858 E0.09007
G1 X53.484 Y51.858 E0.01679
G1 X50.923 Y49.297 E0.11381
G1 X50.923 Y48.762 E0.01679
G1 X54.018 Y51.858 E0.13755
G1 X54.553 Y51.858 E0.01679
G1 X50.923 Y48.228 E0.16129
G1 X50.923 Y47.694 E0.01679
G1 X55.087 Y51.858 E0.18502
G1 X55.621 Y51.858 E0.01679
G1 X50.923 Y47.159 E0.20876
G1 X50.923 Y46.625 E0.01679
G1 X56.156 Y51.858 E0.23250
G1 X56.690 Y51.858 E0.01679
G1 X50.923 Y46.091 E0.25624
G1 X50.923 Y45.556 E0.01679
G1 X57.224 Y51.858 E0.27998
G1 X57.759 Y51.858 E0.01679
G1 X50.923 Y45.022 E0.30372
G1 X50.923 Y44.488 E0.01679
G1 X58.293 Y51.858 E0.32746
G1 X58.827 Y51.858 E0.01679
G1 X50.923 Y43.954 E0.35120
G1 X50.923 Y43.419 E0.01679
G1 X59.362 Y51.858 E0.37493
G1 X59.896 Y51.858 E0.01679
G1 X50.923 Y42.885 E0.39867
G1 X50.923 Y42.351 E0.01679
G1 X60.430 Y51.858 E0.42241
G1 X60.965 Y51.858 E0.01679
G1 X50.923 Y41.816 E0.44615
G1 X50.923 Y41.282 E0.01679
G1 X61.499 Y51.858 E0.46989
G1 X62.033 Y51.858 E0.01679
G1 X50.923 Y40.748 E0.49363
G1 X50.923 Y40.213 E0.01679
G1 X62.568 Y51.858 E0.51737
G1 X63.102 Y51.858 E0.01679
G1 X50.923 Y39.679 E0.54111
G1 X50.923 Y39.145 E0.01679
G1 X63.636 Y51.858 E0.56485
G1 X64.170 Y51.858 E0.01679
G1 X50.923 Y38.610 E0.58858
G1 X50.923 Y38.076 E0.01679
G1 X64.705 Y51.858 E0.61232
G1 X65.239 Y51.858 E0.01679
G1 X50.923 Y37.542 E0.63606
G1 X50.923 Y37.007 E0.01679
G1 X65.773 Y51.858 E0.65980
G1 X66.308 Y51.858 E0.01679
G1 X50.923 Y36.473 E0.68354
G1 X50.923 Y35.939 E0.01679
G1 X66.842 Y51.858 E0.70728
G1 X67.376 Y51.858 E0.01679
G1 X50.923 Y35.405 E0.73102
G1 X50.923 Y34.870 E0.01679
G1 X67.911 Y51.858 E0.75476
G1 X68.445 Y51.858 E0.01679
G1 X50.923 Y34.336 E0.77849
G1 X50.923 Y33.802 E0.01679
G1 X68.979 Y51.858 E0.80223
G1 X69.514 Y51.858 E0.01679
G1 X50.923 Y33.267 E0.82597
G1 X50.923 Y32.733 E0.01679
G1 X70.048 Y51.858 E0.84971
G1 X70.582 Y51.858 E0.01679
G1 X50.923 Y32.199 E0.87345
G1 X50.923 Y31.664 E0.01679
G1 X71.117 Y51.858 E0.89719
G1 X71.651 Y51.858 E0.01679
G1 X50.923 Y31.130 E0.92093
G1 X50.923 Y30.596 E0.01679
G1 X72.185 Y51.858 E0.94467
G1 X72.719 Y51.858 E0.01679
G1 X50.923 Y30.061 E0.96841
G1 X50.923 Y29.527 E0.01679
G1 X73.254 Y51.858 E0.99214
G1 X73.788 Y51.858 E0.01679
G1 X50.923 Y28.993 E1.01588
G1 X50.923 Y28.458 E0.01679
G1 X74.322 Y51.858 E1.03962
G1 X74.857 Y51.858 E0.01679
G1 X50.923 Y27.924 E1.06336
G1 X50.923 Y27.390 E0.01679
G1 X75.391 Y51.858 E1.08710
G1 X75.925 Y51.858 E0.01679
G1 X50.923 Y26.855 E1.11084
G1 X50.923 Y26.321 E0.01679
G1 X76.460 Y51.858 E1.13458
G1 X76.994 Y51.858 E0.01679
G1 X50.923 Y25.787 E1.15832
G1 X50.923 Y25.253 E0.01679
G1 X77.528 Y51.858 E1.18206
G1 X77.683 Y51.858 E0.00485
G1 X77.683 Y51.478 E0.01193
G1 X50.923 Y24.718 E1.18892
G1 X50.923 Y24.184 E0.01679
G1 X77.683 Y50.944 E1.18892
G1 X77.683 Y50.410 E0.01679
G1 X50.923 Y23.650 E1.18892
G1 X50.923 Y23.115 E0.01679
G1 X77.683 Y49.876 E1.18892
G1 X77.683 Y49.341 E0.01679
G1 X50.923 Y22.581 E1.18892
G1 X50.923 Y22.047 E0.01679
G1 X77.683 Y48.807 E1.18892
G1 X77.683 Y48.273 E0.01679
G1 X50.923 Y21.512 E1.18892
G1 X50.923 Y20.978 E0.01679
G1 X77.683 Y47.738 E1.18892
G1 X77.683 Y47.204 E0.01679
G1 X51.077 Y20.598 E1.18206
G1 X51.611 Y20.598 E0.01679
G1 X77.683 Y46.670 E1.15832
G1 X77.683 Y46.135 E0.01679
G1 X52.146 Y20.598 E1.13458
G1 X52.680 Y20.598 E0.01679
G1 X77.683 Y45.601 E1.11084
G1 X77.683 Y45.067 E0.01679
G1 X53.214 Y20.598 E1.08711
G1 X53.748 Y20.598 E0.01679
G1 X77.683 Y44.532 E1.06337
G1 X77.683 Y43.998 E0.01679
G1 X54.283 Y20.598 E1.03963
G1 X54.817 Y20.598 E0.01679
G1 X77.683 Y43.464 E1.01589
G1 X77.683 Y42.929 E0.01679
G1 X55.351 Y20.598 E0.99215
G1 X55.886 Y20.598 E0.01679
G1 X77.683 Y42.395 E0.96841
G1 X77.683 Y41.861 E0.01679
G1 X56.420 Y20.598 E0.94467
G1 X56.954 Y20.598 E0.01679
G1 X77.683 Y41.326 E0.92093
G1 X77.683 Y40.792 E0.01679
G1 X57.489 Y20.598 E0.89720
G1 X58.023 Y20.598 E0.01679
G1 X77.683 Y40.258 E0.87346
G1 X77.683 Y39.724 E0.01679
G1 X58.557 Y20.598 E0.84972
G1 X59.092 Y20.598 E0.01679
G1 X77.683 Y39.189 E0.82598
G1 X77.683 Y38.655 E0.01679
G1 X59.626 Y20.598 E0.80224
G1 X60.160 Y20.598 E0.01679
G1 X77.683 Y38.121 E0.77850
G1 X77.683 Y37.586 E0.01679
G1 X60.695 Y20.598 E0.75476
G1 X61.229 Y20.598 E0.01679
G1 X77.683 Y37.052 E0.73102
G1 X77.683 Y36.518 E0.01679
G1 X61.763 Y20.598 E0.70728
G1 X62.298 Y20.598 E0.01679
G1 X77.683 Y35.983 E0.68355
G1 X77.683 Y35.449 E0.01679
G1 X62.832 Y20.598 E0.65981
G1 X63.366 Y20.598 E0.01679
G1 X77.683 Y34.915 E0.63607
G1 X77.683 Y34.380 E0.01679
G1 X63.900 Y20.598 E0.61233
G1 X64.435 Y20.598 E0.01679
G1 X77.683 Y33.846 E0.58859
G1 X77.683 Y33.312 E0.01679
G1 X64.969 Y20.598 E0.56485
G1 X65.503 Y20.598 E0.01679
G1 X77.683 Y32.777 E0.54111
G1 X77.683 Y32.243 E0.01679
G1 X66.038 Y20.598 E0.51737
G1 X66.572 Y20.598 E0.01679
G1 X77.683 Y31.709 E0.49363
G1 X77.683 Y31.174 E0.01679
G1 X67.106 Y20.598 E0.46990
G1 X67.641 Y20.598 E0.01679
G1 X77.683 Y30.640 E0.44616
G1 X77.683 Y30.106 E0.01679
G1 X68.175 Y20.598 E0.42242
G1 X68.709 Y20.598 E0.01679
G1 X77.683 Y29.572 E0.39868
G1 X77.683 Y29.037 E0.01679
G1 X69.244 Y20.598 E0.37494
G1 X69.778 Y20.598 E0.01679
G1 X77.683 Y28.503 E0.35120
G1 X77.683 Y27.969 E0.01679
G1 X70.312 Y20.598 E0.32746
G1 X70.847 Y20.598 E0.01679
G1 X77.683 Y27.434 E0.30372
G1 X77.683 Y26.900 E0.01679
G1 X71.381 Y20.598 E0.27999
G1 X71.915 Y20.598 E0.01679
G1 X77.683 Y26.366 E0.25625
G1 X77.683 Y25.831 E0.01679
G1 X72.450 Y20.598 E0.23251
G1 X72.984 Y20.598 E0.01679
G1 X77.683 Y25.297 E0.20877
G1 X77.683 Y24.763 E0.01679
G1 X73.518 Y20.598 E0.18503
G1 X74.052 Y20.598 E0.01679
G1 X77.683 Y24.228 E0.16129
G1 X77.683 Y23.694 E0.01679
G1 X74.587 Y20.598 E0.13755
G1 X75.121 Y20.598 E0.01679
G1 X77.683 Y23.160 E0.11381
G1 X77.683 Y22.625 E0.01679
G1 X75.655 Y20.598 E0.09007
G1 X76.190 Y20.598 E0.01679
G1 X77.683 Y22.091 E0.06634
G1 X77.683 Y21.557 E0.01679
G1 X76.724 Y20.598 E0.04260
G1 X77.258 Y20.598 E0.01679
G1 X77.853 Y21.192 E0.02640
M106 S255
;BEFORE_LAYER_CHANGE
;0.4 (1)


G1 F8160
G1 X77.258 Y20.598 E-0.20543
G1 X76.724 Y20.598 E-0.13063
G1 X77.683 Y21.557 E-0.33150
G1 X77.683 Y21.935 E-0.09243
G1 E-0.04000 F2100.00000
G1 Z0.800 F10200.000
;AFTER_LAYER_CHANGE
;0.4
G1 X77.921 Y20.360
G1 Z0.400
G1 E0.80000 F2100.00000
M204 S800
G1 F2700
G1 X77.921 Y52.096 E1.07422
G1 X50.685 Y52.096 E0.92190
G1 X50.685 Y20.360 E1.07422
G1 X77.861 Y20.360 E0.91987
M204 S1000
G1 X78.328 Y19.953 F10200.000
M204 S800
G1 F2100
G1 X78.328 Y52.503 E1.10178
G1 X50.278 Y52.503 E0.94946
G1 X50.278 Y19.953 E1.10178
G1 X78.268 Y19.953 E0.94743
M204 S1000
