; generated by Slic3r Prusa Edition 1.39.2 on 2018-12-26 at 19:47:02

; 

; external perimeters extrusion width = 0.45mm
; perimeters extrusion width = 0.45mm
; infill extrusion width = 0.45mm
; solid infill extrusion width = 0.45mm
; top infill extrusion width = 0.40mm
; first layer extrusion width = 0.42mm

M107
M115 U3.1.3-RC1 ; tell printer latest fw version
M201 X1000 Y1000 Z200 E5000 ; sets maximum accelerations, mm/sec^2
M203 X200 Y200 Z12 E120 ; sets maximum feedrates, mm/sec
M204 S1250 T1250 ; sets acceleration (S) and retract acceleration (T)
M205 X10 Y10 Z0.4 E2.5 ; sets the jerk limits, mm/sec
M205 S0 T0 ; sets the minimum extruding and travel feed rate, mm/sec
M83  ; extruder relative mode
M104 S220 ; set extruder temp
M140 S60 ; set bed temp
M190 S60 ; wait for bed temp
M109 S220 ; wait for extruder temp
G28 W ; home all without mesh bed level
G80 ; mesh bed leveling
G1 Y-3.0 F1000.0 ; go outside print area
G92 E0.0
G1 X60.0 E9.0  F1000.0 ; intro line
G1 X100.0 E12.5  F1000.0 ; intro line
G92 E0.0
M221 S95
M900 K30; Filament gcode
G21 ; set units to millimeters
G90 ; use absolute coordinates
M83 ; use relative distances for extrusion
;BEFORE_LAYER_CHANGE
;0.2 (0)


G1 E-0.80000 F2100.00000
G1 Z0.600 F10200.000
;AFTER_LAYER_CHANGE
;0.2
G1 X112.935 Y32.716
G1 Z0.200
G1 E0.80000 F2100.00000
M204 S1000
G1 F1800
G1 X113.488 Y30.570 E0.06950
G1 X113.912 Y29.489 E0.03640
G1 X114.522 Y28.276 E0.04258
G1 X115.137 Y27.288 E0.03647
G1 X115.900 Y26.276 E0.03974
G1 X116.744 Y25.348 E0.03934
G1 X117.657 Y24.511 E0.03882
G1 X118.678 Y23.735 E0.04022
G1 X119.663 Y23.116 E0.03649
G1 X121.668 Y22.176 E0.06942
G1 X122.735 Y21.824 E0.03522
G1 X123.986 Y21.531 E0.04028
G1 X125.211 Y21.361 E0.03878
G1 X126.494 Y21.302 E0.04028
G1 X127.843 Y21.369 E0.04233
G1 X129.177 Y21.567 E0.04231
G1 X130.487 Y21.896 E0.04234
G1 X131.765 Y22.354 E0.04257
G1 X132.984 Y22.933 E0.04233
G1 X134.148 Y23.632 E0.04257
G1 X135.231 Y24.438 E0.04233
G1 X136.241 Y25.358 E0.04283
G1 X137.139 Y26.354 E0.04207
G1 X137.945 Y27.447 E0.04257
G1 X138.636 Y28.607 E0.04233
G1 X139.216 Y29.843 E0.04282
G1 X139.660 Y31.099 E0.04177
G1 X139.988 Y32.429 E0.04294
G1 X140.181 Y33.763 E0.04227
G1 X140.241 Y35.152 E0.04358
G1 X138.715 Y187.539 E4.77825
G1 X138.524 Y188.865 E0.04200
G1 X138.216 Y190.134 E0.04094
G1 X137.778 Y191.391 E0.04173
G1 X137.253 Y192.538 E0.03954
G1 X136.566 Y193.725 E0.04302
G1 X135.830 Y194.754 E0.03966
G1 X134.957 Y195.759 E0.04174
G1 X134.135 Y196.547 E0.03572
G1 X132.268 Y197.937 E0.07297
G1 X131.218 Y198.527 E0.03775
G1 X129.947 Y199.089 E0.04358
G1 X128.813 Y199.470 E0.03750
G1 X127.531 Y199.772 E0.04130
G1 X126.266 Y199.946 E0.04005
G1 X124.926 Y200.003 E0.04205
G1 X123.675 Y199.937 E0.03929
G1 X122.427 Y199.756 E0.03952
G1 X121.185 Y199.457 E0.04005
G1 X120.076 Y199.082 E0.03673
G1 X118.834 Y198.531 E0.04258
G1 X117.812 Y197.959 E0.03672
G1 X116.013 Y196.640 E0.06995
G1 X115.166 Y195.842 E0.03648
G1 X114.314 Y194.881 E0.04029
G1 X113.573 Y193.871 E0.03927
G1 X112.915 Y192.776 E0.04004
G1 X112.353 Y191.603 E0.04079
G1 X111.924 Y190.445 E0.03872
G1 X111.589 Y189.202 E0.04035
G1 X111.394 Y188.094 E0.03528
G1 X111.268 Y186.194 E0.05973
G1 X111.781 Y110.012 E2.38866
G1 X112.735 Y34.895 E2.35544
G1 X112.930 Y32.776 E0.06672
G1 X113.301 Y32.814 F10200.000
G1 F1800
G1 X113.839 Y30.709 E0.06811
G1 X114.248 Y29.659 E0.03534
G1 X114.840 Y28.478 E0.04141
G1 X115.445 Y27.506 E0.03591
G1 X116.186 Y26.522 E0.03862
G1 X117.006 Y25.619 E0.03824
G1 X117.893 Y24.805 E0.03772
G1 X118.891 Y24.045 E0.03934
G1 X119.848 Y23.445 E0.03543
G1 X121.798 Y22.530 E0.06754
G1 X122.834 Y22.188 E0.03418
G1 X124.050 Y21.903 E0.03916
G1 X125.248 Y21.736 E0.03793
G1 X126.495 Y21.679 E0.03915
G1 X127.807 Y21.744 E0.04117
G1 X129.105 Y21.937 E0.04115
G1 X130.378 Y22.257 E0.04117
G1 X131.621 Y22.703 E0.04140
G1 X132.808 Y23.266 E0.04117
G1 X133.939 Y23.946 E0.04140
G1 X134.992 Y24.730 E0.04117
G1 X135.975 Y25.625 E0.04166
G1 X136.848 Y26.594 E0.04091
G1 X137.628 Y27.650 E0.04116
G1 X138.300 Y28.778 E0.04117
G1 X138.864 Y29.981 E0.04165
G1 X139.300 Y31.209 E0.04087
G1 X139.617 Y32.495 E0.04153
G1 X139.805 Y33.792 E0.04110
G1 X139.864 Y35.143 E0.04239
G1 X138.342 Y187.481 E4.77668
G1 X138.157 Y188.778 E0.04110
G1 X137.856 Y190.020 E0.04005
G1 X137.428 Y191.250 E0.04083
G1 X136.922 Y192.357 E0.03818
G1 X136.250 Y193.519 E0.04210
G1 X135.535 Y194.519 E0.03855
G1 X134.686 Y195.497 E0.04058
G1 X133.894 Y196.257 E0.03443
G1 X132.085 Y197.607 E0.07077
G1 X131.059 Y198.185 E0.03692
G1 X129.823 Y198.733 E0.04239
G1 X128.721 Y199.104 E0.03643
G1 X127.467 Y199.400 E0.04040
G1 X126.237 Y199.570 E0.03893
G1 X124.934 Y199.626 E0.04090
G1 X123.710 Y199.561 E0.03843
G1 X122.506 Y199.387 E0.03816
G1 X121.291 Y199.095 E0.03918
G1 X120.213 Y198.731 E0.03567
G1 X118.999 Y198.192 E0.04166
G1 X118.013 Y197.640 E0.03541
G1 X116.256 Y196.352 E0.06830
G1 X115.434 Y195.577 E0.03542
G1 X114.601 Y194.636 E0.03942
G1 X113.881 Y193.654 E0.03817
G1 X113.239 Y192.583 E0.03917
G1 X112.694 Y191.442 E0.03966
G1 X112.276 Y190.308 E0.03788
G1 X111.951 Y189.092 E0.03948
G1 X111.763 Y188.008 E0.03449
G1 X111.645 Y186.193 E0.05701
G1 X112.158 Y110.015 E2.38856
G1 X113.112 Y34.900 E2.35537
G1 X113.296 Y32.874 E0.06381
G1 F8160
G1 X113.839 Y30.709 E-0.54556
G1 X114.158 Y29.892 E-0.21444
G1 E-0.04000 F2100.00000
G1 Z0.800 F10200.000
G1 X122.242 Y34.282
G1 Z0.200
G1 E0.80000 F2100.00000
G1 F1800
G1 X122.365 Y33.765 E0.01668
G1 X122.512 Y33.367 E0.01329
G1 X122.696 Y32.986 E0.01329
G1 X122.918 Y32.624 E0.01329
G1 X123.173 Y32.286 E0.01329
G1 X123.460 Y31.975 E0.01325
G1 X123.779 Y31.691 E0.01340
G1 X124.122 Y31.442 E0.01330
G1 X124.488 Y31.227 E0.01329
G1 X124.872 Y31.050 E0.01329
G1 X125.273 Y30.911 E0.01329
G1 X125.685 Y30.811 E0.01329
G1 X126.105 Y30.753 E0.01331
G1 X126.530 Y30.737 E0.01333
G1 X126.952 Y30.761 E0.01323
G1 X127.370 Y30.827 E0.01329
G1 X127.781 Y30.934 E0.01329
G1 X128.178 Y31.081 E0.01329
G1 X128.560 Y31.266 E0.01329
G1 X128.921 Y31.487 E0.01329
G1 X129.259 Y31.743 E0.01329
G1 X129.571 Y32.031 E0.01329
G1 X129.851 Y32.346 E0.01322
G1 X130.100 Y32.688 E0.01329
G1 X130.315 Y33.054 E0.01329
G1 X130.493 Y33.439 E0.01329
G1 X130.632 Y33.839 E0.01329
G1 X130.731 Y34.251 E0.01329
G1 X130.790 Y34.671 E0.01329
G1 X130.807 Y35.095 E0.01329
G1 X130.782 Y35.518 E0.01329
G1 X130.716 Y35.936 E0.01329
G1 X130.610 Y36.347 E0.01329
G1 X130.463 Y36.745 E0.01329
G1 X130.279 Y37.126 E0.01329
G1 X130.057 Y37.488 E0.01329
G1 X129.802 Y37.826 E0.01329
G1 X129.515 Y38.137 E0.01325
G1 X129.196 Y38.421 E0.01340
G1 X128.853 Y38.670 E0.01330
G1 X128.487 Y38.885 E0.01329
G1 X128.103 Y39.062 E0.01329
G1 X127.702 Y39.201 E0.01329
G1 X127.290 Y39.300 E0.01329
G1 X126.870 Y39.358 E0.01329
G1 X126.446 Y39.375 E0.01329
G1 X126.023 Y39.350 E0.01329
G1 X125.605 Y39.284 E0.01329
G1 X125.194 Y39.177 E0.01329
G1 X124.797 Y39.031 E0.01329
G1 X124.415 Y38.846 E0.01329
G1 X124.054 Y38.625 E0.01329
G1 X123.716 Y38.369 E0.01329
G1 X123.404 Y38.081 E0.01329
G1 X123.124 Y37.766 E0.01322
G1 X122.875 Y37.423 E0.01329
G1 X122.660 Y37.058 E0.01329
G1 X122.482 Y36.673 E0.01329
G1 X122.343 Y36.273 E0.01329
G1 X122.244 Y35.861 E0.01329
G1 X122.185 Y35.441 E0.01329
G1 X122.168 Y35.017 E0.01329
G1 X122.193 Y34.594 E0.01329
G1 X122.232 Y34.342 E0.00801
G1 X122.605 Y34.400 F10200.000
G1 F1800
G1 X122.723 Y33.885 E0.01654
G1 X122.856 Y33.522 E0.01213
G1 X123.024 Y33.173 E0.01213
G1 X123.225 Y32.843 E0.01213
G1 X123.457 Y32.534 E0.01213
G1 X123.718 Y32.250 E0.01209
G1 X124.009 Y31.990 E0.01223
G1 X124.322 Y31.762 E0.01213
G1 X124.655 Y31.565 E0.01213
G1 X125.006 Y31.402 E0.01213
G1 X125.371 Y31.275 E0.01213
G1 X125.747 Y31.183 E0.01213
G1 X126.131 Y31.130 E0.01214
G1 X126.519 Y31.114 E0.01217
G1 X126.903 Y31.135 E0.01208
G1 X127.285 Y31.195 E0.01213
G1 X127.660 Y31.292 E0.01213
G1 X128.023 Y31.425 E0.01213
G1 X128.372 Y31.593 E0.01213
G1 X128.702 Y31.794 E0.01213
G1 X129.011 Y32.027 E0.01213
G1 X129.296 Y32.289 E0.01213
G1 X129.552 Y32.576 E0.01207
G1 X129.781 Y32.888 E0.01213
G1 X129.977 Y33.221 E0.01213
G1 X130.140 Y33.572 E0.01213
G1 X130.268 Y33.937 E0.01213
G1 X130.359 Y34.313 E0.01213
G1 X130.414 Y34.697 E0.01213
G1 X130.430 Y35.083 E0.01213
G1 X130.408 Y35.469 E0.01213
G1 X130.349 Y35.852 E0.01213
G1 X130.252 Y36.226 E0.01213
G1 X130.119 Y36.590 E0.01213
G1 X129.951 Y36.938 E0.01213
G1 X129.750 Y37.269 E0.01213
G1 X129.518 Y37.578 E0.01213
G1 X129.257 Y37.862 E0.01209
G1 X128.966 Y38.122 E0.01223
G1 X128.653 Y38.350 E0.01213
G1 X128.320 Y38.547 E0.01213
G1 X127.969 Y38.709 E0.01213
G1 X127.604 Y38.837 E0.01213
G1 X127.228 Y38.928 E0.01213
G1 X126.845 Y38.982 E0.01213
G1 X126.458 Y38.998 E0.01213
G1 X126.072 Y38.976 E0.01213
G1 X125.690 Y38.917 E0.01213
G1 X125.315 Y38.820 E0.01213
G1 X124.952 Y38.687 E0.01213
G1 X124.603 Y38.519 E0.01213
G1 X124.273 Y38.318 E0.01213
G1 X123.964 Y38.085 E0.01213
G1 X123.679 Y37.823 E0.01213
G1 X123.423 Y37.536 E0.01207
G1 X123.194 Y37.223 E0.01213
G1 X122.998 Y36.890 E0.01213
G1 X122.835 Y36.539 E0.01213
G1 X122.707 Y36.174 E0.01213
G1 X122.616 Y35.798 E0.01213
G1 X122.561 Y35.415 E0.01213
G1 X122.545 Y35.029 E0.01213
G1 X122.595 Y34.459 E0.01793
G1 X122.968 Y34.516 F10200.000
G1 F1800
G1 X123.081 Y34.005 E0.01640
G1 X123.200 Y33.676 E0.01097
G1 X123.351 Y33.361 E0.01097
G1 X123.532 Y33.061 E0.01097
G1 X123.742 Y32.781 E0.01097
G1 X123.977 Y32.524 E0.01093
G1 X124.240 Y32.288 E0.01107
G1 X124.522 Y32.081 E0.01097
G1 X124.823 Y31.903 E0.01097
G1 X125.140 Y31.755 E0.01097
G1 X125.470 Y31.639 E0.01097
G1 X125.810 Y31.555 E0.01097
G1 X126.157 Y31.506 E0.01098
G1 X126.508 Y31.491 E0.01102
G1 X126.855 Y31.509 E0.01092
G1 X127.201 Y31.563 E0.01097
G1 X127.540 Y31.649 E0.01097
G1 X127.869 Y31.769 E0.01097
G1 X128.185 Y31.920 E0.01097
G1 X128.484 Y32.102 E0.01097
G1 X128.764 Y32.312 E0.01097
G1 X129.022 Y32.548 E0.01097
G1 X129.254 Y32.807 E0.01091
G1 X129.461 Y33.089 E0.01097
G1 X129.640 Y33.390 E0.01097
G1 X129.788 Y33.707 E0.01097
G1 X129.904 Y34.037 E0.01097
G1 X129.988 Y34.377 E0.01097
G1 X130.037 Y34.723 E0.01097
G1 X130.053 Y35.072 E0.01097
G1 X130.034 Y35.422 E0.01097
G1 X129.981 Y35.768 E0.01097
G1 X129.894 Y36.107 E0.01097
G1 X129.775 Y36.436 E0.01097
G1 X129.624 Y36.751 E0.01097
G1 X129.443 Y37.050 E0.01097
G1 X129.233 Y37.330 E0.01097
G1 X128.998 Y37.588 E0.01093
G1 X128.735 Y37.824 E0.01107
G1 X128.453 Y38.031 E0.01097
G1 X128.152 Y38.209 E0.01097
G1 X127.835 Y38.357 E0.01097
G1 X127.505 Y38.473 E0.01097
G1 X127.165 Y38.556 E0.01097
G1 X126.818 Y38.606 E0.01097
G1 X126.469 Y38.621 E0.01097
G1 X126.120 Y38.602 E0.01097
G1 X125.774 Y38.549 E0.01097
G1 X125.435 Y38.462 E0.01097
G1 X125.106 Y38.343 E0.01097
G1 X124.790 Y38.191 E0.01097
G1 X124.491 Y38.010 E0.01097
G1 X124.211 Y37.800 E0.01097
G1 X123.953 Y37.564 E0.01097
G1 X123.721 Y37.305 E0.01091
G1 X123.514 Y37.023 E0.01097
G1 X123.335 Y36.722 E0.01097
G1 X123.187 Y36.405 E0.01097
G1 X123.071 Y36.075 E0.01097
G1 X122.987 Y35.735 E0.01097
G1 X122.938 Y35.389 E0.01097
G1 X122.922 Y35.039 E0.01097
G1 X122.959 Y34.575 E0.01460
G1 X123.331 Y34.631 F10200.000
G1 F1800
G1 X123.439 Y34.124 E0.01627
G1 X123.545 Y33.829 E0.00981
G1 X123.679 Y33.547 E0.00981
G1 X123.840 Y33.279 E0.00981
G1 X124.027 Y33.028 E0.00981
G1 X124.237 Y32.797 E0.00977
G1 X124.472 Y32.586 E0.00990
G1 X124.723 Y32.400 E0.00981
G1 X124.992 Y32.240 E0.00981
G1 X125.275 Y32.107 E0.00981
G1 X125.570 Y32.002 E0.00981
G1 X125.874 Y31.927 E0.00981
G1 X126.184 Y31.882 E0.00981
G1 X126.498 Y31.868 E0.00986
G1 X126.809 Y31.884 E0.00976
G1 X127.118 Y31.931 E0.00981
G1 X127.421 Y32.007 E0.00981
G1 X127.716 Y32.114 E0.00981
G1 X127.998 Y32.248 E0.00981
G1 X128.266 Y32.410 E0.00981
G1 X128.517 Y32.597 E0.00981
G1 X128.748 Y32.808 E0.00981
G1 X128.956 Y33.039 E0.00976
G1 X129.142 Y33.290 E0.00981
G1 X129.303 Y33.559 E0.00981
G1 X129.436 Y33.842 E0.00981
G1 X129.540 Y34.137 E0.00981
G1 X129.616 Y34.441 E0.00981
G1 X129.661 Y34.750 E0.00981
G1 X129.676 Y35.063 E0.00981
G1 X129.660 Y35.375 E0.00981
G1 X129.613 Y35.685 E0.00981
G1 X129.536 Y35.988 E0.00981
G1 X129.430 Y36.282 E0.00981
G1 X129.296 Y36.565 E0.00981
G1 X129.135 Y36.833 E0.00981
G1 X128.948 Y37.084 E0.00981
G1 X128.738 Y37.314 E0.00977
G1 X128.503 Y37.526 E0.00990
G1 X128.252 Y37.712 E0.00981
G1 X127.983 Y37.872 E0.00981
G1 X127.700 Y38.005 E0.00981
G1 X127.405 Y38.109 E0.00981
G1 X127.101 Y38.185 E0.00981
G1 X126.791 Y38.230 E0.00981
G1 X126.479 Y38.244 E0.00981
G1 X126.166 Y38.228 E0.00981
G1 X125.857 Y38.181 E0.00981
G1 X125.554 Y38.104 E0.00981
G1 X125.259 Y37.998 E0.00981
G1 X124.977 Y37.864 E0.00981
G1 X124.709 Y37.702 E0.00981
G1 X124.458 Y37.515 E0.00981
G1 X124.227 Y37.304 E0.00981
G1 X124.019 Y37.073 E0.00976
G1 X123.833 Y36.821 E0.00981
G1 X123.672 Y36.553 E0.00981
G1 X123.539 Y36.269 E0.00981
G1 X123.435 Y35.975 E0.00981
G1 X123.359 Y35.671 E0.00981
G1 X123.314 Y35.361 E0.00981
G1 X123.299 Y35.049 E0.00981
G1 X123.322 Y34.691 E0.01126
G1 F8160
G1 X123.439 Y34.124 E-0.14149
G1 X123.545 Y33.829 E-0.07650
G1 X123.679 Y33.547 E-0.07649
G1 X123.840 Y33.279 E-0.07649
G1 X124.027 Y33.028 E-0.07650
G1 X124.237 Y32.797 E-0.07622
G1 X124.472 Y32.586 E-0.07721
G1 X124.723 Y32.400 E-0.07648
G1 X124.992 Y32.240 E-0.07649
G1 X125.015 Y32.229 E-0.00613
G1 E-0.04000 F2100.00000
G1 Z0.800 F10200.000
G1 X125.577 Y105.790
G1 Z0.200
G1 E0.80000 F2100.00000
G1 F1800
G1 X125.999 Y105.815 E0.01323
G1 X126.418 Y105.881 E0.01329
G1 X126.828 Y105.988 E0.01329
G1 X127.225 Y106.134 E0.01329
G1 X127.607 Y106.319 E0.01329
G1 X127.968 Y106.541 E0.01329
G1 X128.307 Y106.796 E0.01329
G1 X128.618 Y107.084 E0.01329
G1 X128.898 Y107.399 E0.01322
G1 X129.147 Y107.742 E0.01329
G1 X129.362 Y108.107 E0.01329
G1 X129.540 Y108.492 E0.01329
G1 X129.679 Y108.892 E0.01329
G1 X129.778 Y109.304 E0.01329
G1 X129.837 Y109.724 E0.01329
G1 X129.854 Y110.148 E0.01329
G1 X129.829 Y110.571 E0.01329
G1 X129.763 Y110.990 E0.01329
G1 X129.657 Y111.400 E0.01329
G1 X129.510 Y111.798 E0.01329
G1 X129.326 Y112.179 E0.01329
G1 X129.104 Y112.541 E0.01329
G1 X128.849 Y112.879 E0.01329
G1 X128.562 Y113.190 E0.01325
G1 X128.243 Y113.474 E0.01340
G1 X127.900 Y113.723 E0.01330
G1 X127.535 Y113.938 E0.01329
G1 X127.150 Y114.115 E0.01329
G1 X126.749 Y114.254 E0.01329
G1 X126.337 Y114.354 E0.01329
G1 X125.917 Y114.412 E0.01329
G1 X125.494 Y114.429 E0.01329
G1 X125.070 Y114.404 E0.01329
G1 X124.652 Y114.338 E0.01329
G1 X124.241 Y114.231 E0.01329
G1 X123.844 Y114.084 E0.01329
G1 X123.462 Y113.899 E0.01329
G1 X123.101 Y113.678 E0.01329
G1 X122.763 Y113.422 E0.01329
G1 X122.451 Y113.134 E0.01329
G1 X122.171 Y112.819 E0.01322
G1 X121.922 Y112.477 E0.01329
G1 X121.707 Y112.111 E0.01329
G1 X121.529 Y111.726 E0.01329
G1 X121.390 Y111.326 E0.01329
G1 X121.291 Y110.914 E0.01329
G1 X121.232 Y110.494 E0.01329
G1 X121.215 Y110.070 E0.01329
G1 X121.240 Y109.647 E0.01329
G1 X121.306 Y109.229 E0.01329
G1 X121.412 Y108.818 E0.01329
G1 X121.559 Y108.420 E0.01329
G1 X121.744 Y108.039 E0.01329
G1 X121.965 Y107.677 E0.01329
G1 X122.220 Y107.339 E0.01329
G1 X122.507 Y107.029 E0.01325
G1 X122.826 Y106.744 E0.01340
G1 X123.169 Y106.495 E0.01330
G1 X123.535 Y106.280 E0.01329
G1 X123.920 Y106.103 E0.01329
G1 X124.320 Y105.964 E0.01329
G1 X124.732 Y105.865 E0.01329
G1 X125.153 Y105.807 E0.01331
G1 X125.517 Y105.792 E0.01145
G1 X125.533 Y106.168 F10200.000
G1 F1800
G1 X125.950 Y106.189 E0.01310
G1 X126.333 Y106.248 E0.01213
G1 X126.707 Y106.345 E0.01213
G1 X127.070 Y106.478 E0.01213
G1 X127.419 Y106.646 E0.01213
G1 X127.749 Y106.848 E0.01213
G1 X128.058 Y107.080 E0.01213
G1 X128.343 Y107.342 E0.01213
G1 X128.599 Y107.629 E0.01207
G1 X128.828 Y107.942 E0.01213
G1 X129.024 Y108.275 E0.01213
G1 X129.187 Y108.626 E0.01213
G1 X129.315 Y108.991 E0.01213
G1 X129.406 Y109.367 E0.01213
G1 X129.461 Y109.750 E0.01213
G1 X129.477 Y110.136 E0.01213
G1 X129.455 Y110.523 E0.01213
G1 X129.396 Y110.905 E0.01213
G1 X129.299 Y111.280 E0.01213
G1 X129.166 Y111.643 E0.01213
G1 X128.999 Y111.992 E0.01213
G1 X128.797 Y112.322 E0.01213
G1 X128.565 Y112.631 E0.01213
G1 X128.304 Y112.915 E0.01209
G1 X128.013 Y113.175 E0.01223
