; generated by Slic3r Prusa Edition 1.39.2 on 2018-12-26 at 23:24:13

; 

; external perimeters extrusion width = 0.45mm
; perimeters extrusion width = 0.45mm
; infill extrusion width = 0.45mm
; solid infill extrusion width = 0.45mm
; top infill extrusion width = 0.40mm
; first layer extrusion width = 0.42mm

M107
M115 U3.1.3-RC1 ; tell printer latest fw version
M201 X1000 Y1000 Z200 E5000 ; sets maximum accelerations, mm/sec^2
M203 X200 Y200 Z12 E120 ; sets maximum feedrates, mm/sec
M204 S1250 T1250 ; sets acceleration (S) and retract acceleration (T)
M205 X10 Y10 Z0.4 E2.5 ; sets the jerk limits, mm/sec
M205 S0 T0 ; sets the minimum extruding and travel feed rate, mm/sec
M83  ; extruder relative mode
M104 S220 ; set extruder temp
M140 S60 ; set bed temp
M190 S60 ; wait for bed temp
M109 S220 ; wait for extruder temp
G28 W ; home all without mesh bed level
G80 ; mesh bed leveling
G1 Y-3.0 F1000.0 ; go outside print area
G92 E0.0
G1 X60.0 E9.0  F1000.0 ; intro line
G1 X100.0 E12.5  F1000.0 ; intro line
G92 E0.0
M221 S95
M900 K30; Filament gcode
G21 ; set units to millimeters
G90 ; use absolute coordinates
M83 ; use relative distances for extrusion
;BEFORE_LAYER_CHANGE
;0.2 (0)


G1 E-0.80000 F2100.00000
G1 Z0.600 F10200.000
;AFTER_LAYER_CHANGE
;0.2
G1 X111.938 Y88.926
G1 Z0.200
G1 E0.80000 F2100.00000
M204 S1000
G1 F1800
G1 X133.867 Y61.322 E1.10537
G1 X134.924 Y60.226 E0.04774
G1 X136.383 Y59.027 E0.05922
G1 X137.761 Y58.146 E0.05127
G1 X139.012 Y57.518 E0.04390
G1 X140.537 Y56.938 E0.05114
G1 X141.987 Y56.557 E0.04701
G1 X143.504 Y56.322 E0.04813
G1 X145.006 Y56.246 E0.04715
G1 X146.317 Y56.305 E0.04115
G1 X147.495 Y56.460 E0.03725
G1 X149.627 Y56.992 E0.06891
G1 X150.743 Y57.410 E0.03737
G1 X151.917 Y57.968 E0.04074
G1 X153.047 Y58.634 E0.04112
G1 X153.984 Y59.300 E0.03605
G1 X155.641 Y60.782 E0.06971
G1 X156.426 Y61.668 E0.03712
G1 X157.197 Y62.699 E0.04037
G1 X157.902 Y63.845 E0.04219
G1 X158.409 Y64.855 E0.03543
G1 X159.157 Y66.845 E0.06666
G1 X173.555 Y136.601 E2.23325
G1 X173.702 Y137.783 E0.03735
G1 X173.752 Y139.223 E0.04517
G1 X173.671 Y140.555 E0.04185
G1 X173.443 Y142.011 E0.04619
G1 X173.110 Y143.307 E0.04197
G1 X172.636 Y144.632 E0.04412
G1 X172.046 Y145.888 E0.04353
G1 X171.332 Y147.100 E0.04409
G1 X170.333 Y148.447 E0.05260
G1 X169.142 Y149.713 E0.05450
G1 X167.578 Y151.001 E0.06353
G1 X166.155 Y151.902 E0.05280
G1 X164.631 Y152.637 E0.05305
G1 X163.029 Y153.193 E0.05316
G1 X161.439 Y153.549 E0.05109
G1 X159.513 Y153.742 E0.06070
G1 X90.660 Y153.749 E2.15883
G1 X88.497 Y153.538 E0.06812
G1 X86.643 Y153.096 E0.05979
G1 X84.887 Y152.424 E0.05895
G1 X82.899 Y151.331 E0.07113
G1 X81.690 Y150.446 E0.04697
G1 X80.620 Y149.485 E0.04512
G1 X79.646 Y148.420 E0.04525
G1 X78.784 Y147.272 E0.04500
G1 X78.016 Y146.007 E0.04639
G1 X77.394 Y144.706 E0.04523
G1 X76.905 Y143.358 E0.04495
G1 X76.547 Y141.967 E0.04504
G1 X76.326 Y140.523 E0.04579
G1 X76.246 Y139.061 E0.04594
G1 X76.312 Y137.603 E0.04576
G1 X76.514 Y136.202 E0.04436
G1 X76.859 Y134.793 E0.04548
G1 X77.341 Y133.423 E0.04555
G1 X77.944 Y132.129 E0.04475
G1 X78.661 Y130.912 E0.04429
G1 X79.482 Y129.780 E0.04385
G1 X111.900 Y88.973 E1.63410
G1 X112.195 Y89.207 F10200.000
G1 F1800
G1 X134.145 Y61.576 E1.10642
G1 X135.180 Y60.504 E0.04673
G1 X136.601 Y59.335 E0.05770
G1 X137.944 Y58.475 E0.05001
G1 X139.164 Y57.863 E0.04277
G1 X140.651 Y57.297 E0.04988
G1 X142.064 Y56.926 E0.04582
G1 X143.543 Y56.697 E0.04693
G1 X145.007 Y56.623 E0.04596
G1 X146.283 Y56.681 E0.04006
G1 X147.437 Y56.833 E0.03648
G1 X149.505 Y57.349 E0.06684
G1 X150.598 Y57.758 E0.03660
G1 X151.748 Y58.305 E0.03992
G1 X152.848 Y58.954 E0.04003
G1 X153.765 Y59.607 E0.03531
G1 X155.372 Y61.045 E0.06762
G1 X156.140 Y61.913 E0.03635
G1 X156.891 Y62.919 E0.03933
G1 X157.576 Y64.034 E0.04105
G1 X158.072 Y65.023 E0.03468
G1 X158.800 Y66.970 E0.06517
G1 X173.181 Y136.652 E2.23088
G1 X173.325 Y137.801 E0.03632
G1 X173.375 Y139.213 E0.04430
G1 X173.295 Y140.517 E0.04097
G1 X173.074 Y141.937 E0.04505
G1 X172.749 Y143.198 E0.04083
G1 X172.284 Y144.497 E0.04326
G1 X171.705 Y145.728 E0.04265
G1 X171.003 Y146.914 E0.04322
G1 X170.036 Y148.214 E0.05079
G1 X168.873 Y149.448 E0.05318
G1 X167.347 Y150.703 E0.06194
G1 X165.959 Y151.580 E0.05151
G1 X164.479 Y152.292 E0.05150
G1 X162.915 Y152.833 E0.05187
G1 X161.372 Y153.177 E0.04958
G1 X159.478 Y153.366 E0.05966
G1 X90.682 Y153.372 E2.15707
G1 X88.563 Y153.167 E0.06673
G1 X86.752 Y152.735 E0.05837
G1 X85.034 Y152.077 E0.05770
G1 X83.086 Y151.003 E0.06975
G1 X81.921 Y150.148 E0.04528
G1 X80.879 Y149.211 E0.04396
G1 X79.930 Y148.173 E0.04408
G1 X79.091 Y147.053 E0.04387
G1 X78.343 Y145.820 E0.04522
G1 X77.738 Y144.552 E0.04405
G1 X77.263 Y143.239 E0.04379
G1 X76.913 Y141.874 E0.04417
G1 X76.699 Y140.468 E0.04459
G1 X76.623 Y139.049 E0.04456
G1 X76.688 Y137.629 E0.04457
G1 X76.887 Y136.258 E0.04346
G1 X77.225 Y134.885 E0.04431
G1 X77.693 Y133.557 E0.04417
G1 X78.285 Y132.291 E0.04381
G1 X78.986 Y131.105 E0.04318
G1 X79.777 Y130.015 E0.04223
G1 X112.158 Y89.254 E1.63224
G1 F8160
G1 X114.091 Y86.820 E-0.76000
G1 E-0.04000 F2100.00000
G1 Z0.800 F10200.000
G1 X153.320 Y124.320
G1 Z0.200
G1 E0.80000 F2100.00000
G1 F1800
G1 X153.320 Y126.680 E0.07401
G1 X161.050 Y126.680 E0.24238
G1 X161.475 Y126.833 E0.01414
G1 X161.919 Y127.225 E0.01857
G1 X162.065 Y127.505 E0.00991
G1 X164.219 Y137.969 E0.33498
G1 X164.296 Y138.500 E0.01681
G1 X164.319 Y139.039 E0.01692
G1 X164.292 Y139.539 E0.01572
G1 X164.214 Y140.055 E0.01635
G1 X164.086 Y140.561 E0.01636
G1 X163.915 Y141.034 E0.01578
G1 X163.692 Y141.506 E0.01635
G1 X163.435 Y141.937 E0.01576
G1 X163.126 Y142.358 E0.01637
G1 X162.776 Y142.747 E0.01640
G1 X162.375 Y143.112 E0.01702
G1 X161.954 Y143.424 E0.01643
G1 X161.489 Y143.701 E0.01697
G1 X161.051 Y143.908 E0.01518
G1 X160.581 Y144.079 E0.01568
G1 X160.077 Y144.209 E0.01633
G1 X159.561 Y144.290 E0.01636
G1 X159.014 Y144.320 E0.01718
G1 X90.986 Y144.320 E2.13298
G1 X90.497 Y144.296 E0.01534
G1 X90.000 Y144.225 E0.01574
G1 X89.437 Y144.085 E0.01820
G1 X88.946 Y143.907 E0.01636
G1 X88.476 Y143.683 E0.01632
G1 X88.047 Y143.424 E0.01572
G1 X87.642 Y143.126 E0.01576
G1 X87.254 Y142.777 E0.01636
G1 X86.902 Y142.392 E0.01636
G1 X86.589 Y141.974 E0.01637
G1 X86.319 Y141.527 E0.01637
G1 X86.094 Y141.056 E0.01637
G1 X85.916 Y140.565 E0.01637
G1 X85.787 Y140.060 E0.01637
G1 X85.708 Y139.544 E0.01636
G1 X85.680 Y139.022 E0.01637
G1 X85.704 Y138.501 E0.01637
G1 X85.778 Y137.984 E0.01636
G1 X85.903 Y137.477 E0.01637
G1 X86.077 Y136.985 E0.01637
G1 X86.298 Y136.512 E0.01636
G1 X86.565 Y136.063 E0.01638
G1 X86.856 Y135.665 E0.01547
G1 X140.886 Y67.627 E2.72411
G1 X141.253 Y67.224 E0.01710
G1 X141.656 Y66.863 E0.01697
G1 X142.077 Y66.555 E0.01633
G1 X142.492 Y66.309 E0.01515
G1 X142.929 Y66.100 E0.01516
G1 X143.456 Y65.909 E0.01758
G1 X143.983 Y65.779 E0.01703
G1 X144.523 Y65.702 E0.01709
G1 X145.070 Y65.682 E0.01717
G1 X145.561 Y65.710 E0.01541
G1 X146.057 Y65.787 E0.01574
G1 X146.543 Y65.909 E0.01572
G1 X147.000 Y66.071 E0.01519
G1 X147.541 Y66.327 E0.01879
G1 X147.956 Y66.577 E0.01517
G1 X148.345 Y66.864 E0.01515
G1 X148.733 Y67.210 E0.01632
G1 X149.087 Y67.595 E0.01637
G1 X149.433 Y68.060 E0.01820
G1 X149.683 Y68.476 E0.01520
G1 X149.900 Y68.929 E0.01574
G1 X150.101 Y69.492 E0.01876
G1 X150.213 Y69.942 E0.01454
G1 X161.144 Y123.034 E1.69957
G1 X161.141 Y123.201 E0.00524
G1 X161.081 Y123.447 E0.00796
G1 X161.006 Y123.596 E0.00522
G1 X160.592 Y124.098 E0.02041
G1 X160.490 Y124.173 E0.00395
G1 X160.256 Y124.284 E0.00812
G1 X160.135 Y124.315 E0.00394
G1 X153.380 Y124.320 E0.21179
G1 X152.943 Y123.943 F10200.000
G1 F1800
G1 X152.943 Y127.057 E0.09766
G1 X161.018 Y127.057 E0.25320
G1 X161.258 Y127.143 E0.00800
G1 X161.607 Y127.439 E0.01435
G1 X161.701 Y127.611 E0.00613
G1 X163.849 Y138.040 E0.33385
G1 X163.921 Y138.544 E0.01598
G1 X163.942 Y139.028 E0.01518
G1 X163.918 Y139.493 E0.01459
G1 X163.846 Y139.972 E0.01520
G1 X163.727 Y140.443 E0.01522
G1 X163.570 Y140.882 E0.01464
G1 X163.364 Y141.321 E0.01521
G1 X163.125 Y141.722 E0.01462
G1 X162.839 Y142.113 E0.01519
G1 X162.502 Y142.487 E0.01579
G1 X162.129 Y142.826 E0.01582
G1 X161.738 Y143.115 E0.01524
G1 X161.304 Y143.372 E0.01580
G1 X160.899 Y143.563 E0.01405
G1 X160.462 Y143.722 E0.01458
G1 X159.993 Y143.842 E0.01518
G1 X159.513 Y143.916 E0.01520
G1 X159.009 Y143.943 E0.01583
G1 X90.991 Y143.943 E2.13267
G1 X90.525 Y143.920 E0.01462
G1 X90.064 Y143.853 E0.01461
G1 X89.538 Y143.721 E0.01700
G1 X89.100 Y143.563 E0.01462
G1 X88.662 Y143.355 E0.01519
G1 X88.263 Y143.115 E0.01460
G1 X87.887 Y142.839 E0.01462
G1 X87.526 Y142.515 E0.01521
G1 X87.198 Y142.158 E0.01520
G1 X86.907 Y141.770 E0.01521
G1 X86.655 Y141.355 E0.01521
G1 X86.445 Y140.918 E0.01521
G1 X86.279 Y140.462 E0.01520
G1 X86.158 Y139.993 E0.01521
G1 X86.084 Y139.513 E0.01520
G1 X86.058 Y139.029 E0.01521
G1 X86.079 Y138.544 E0.01521
G1 X86.147 Y138.064 E0.01520
G1 X86.262 Y137.593 E0.01520
G1 X86.423 Y137.135 E0.01521
G1 X86.627 Y136.696 E0.01520
G1 X86.874 Y136.278 E0.01521
G1 X87.154 Y135.897 E0.01483
G1 X141.178 Y67.866 E2.72380
G1 X141.513 Y67.498 E0.01562
G1 X141.887 Y67.161 E0.01579
G1 X142.277 Y66.875 E0.01518
G1 X142.677 Y66.637 E0.01459
G1 X143.082 Y66.445 E0.01405
G1 X143.574 Y66.268 E0.01640
G1 X144.064 Y66.147 E0.01582
G1 X144.547 Y66.078 E0.01530
G1 X145.059 Y66.059 E0.01605
G1 X145.513 Y66.084 E0.01429
G1 X145.974 Y66.155 E0.01462
G1 X146.426 Y66.268 E0.01460
G1 X146.865 Y66.423 E0.01460
G1 X147.355 Y66.655 E0.01700
G1 X147.739 Y66.886 E0.01406
G1 X148.114 Y67.162 E0.01459
G1 X148.474 Y67.485 E0.01517
G1 X148.802 Y67.842 E0.01521
G1 X149.115 Y68.262 E0.01641
G1 X149.355 Y68.662 E0.01462
G1 X149.555 Y69.082 E0.01460
G1 X149.738 Y69.592 E0.01698
G1 X149.845 Y70.022 E0.01388
G1 X160.771 Y123.089 E1.69879
G1 X160.701 Y123.375 E0.00921
G1 X160.340 Y123.817 E0.01788
G1 X160.075 Y123.943 E0.00921
G1 X153.003 Y123.943 E0.22174
G1 X152.566 Y123.566 F10200.000
G1 F1800
G1 X152.566 Y127.434 E0.12130
G1 X160.986 Y127.434 E0.26401
G1 X161.047 Y127.456 E0.00204
G1 X161.306 Y127.667 E0.01046
G1 X161.339 Y127.723 E0.00204
G1 X163.478 Y138.111 E0.33254
G1 X163.545 Y138.571 E0.01459
G1 X163.565 Y139.018 E0.01404
G1 X163.543 Y139.447 E0.01346
G1 X163.478 Y139.890 E0.01404
G1 X163.369 Y140.325 E0.01405
G1 X163.218 Y140.746 E0.01405
G1 X163.027 Y141.152 E0.01405
G1 X162.806 Y141.521 E0.01348
G1 X162.541 Y141.882 E0.01406
G1 X162.241 Y142.215 E0.01404
G1 X161.896 Y142.529 E0.01464
G1 X161.536 Y142.796 E0.01406
G1 X161.135 Y143.035 E0.01462
G1 X160.747 Y143.218 E0.01347
G1 X160.343 Y143.364 E0.01346
G1 X159.909 Y143.474 E0.01404
G1 X159.466 Y143.542 E0.01404
G1 X159.005 Y143.566 E0.01449
G1 X90.995 Y143.566 E2.13238
G1 X90.553 Y143.543 E0.01389
G1 X90.128 Y143.481 E0.01347
G1 X89.657 Y143.363 E0.01523
G1 X89.252 Y143.218 E0.01347
G1 X88.847 Y143.026 E0.01405
G1 X88.479 Y142.806 E0.01346
G1 X88.118 Y142.541 E0.01404
G1 X87.785 Y142.241 E0.01405
G1 X87.483 Y141.911 E0.01405
G1 X87.214 Y141.552 E0.01405
G1 X86.982 Y141.168 E0.01405
G1 X86.789 Y140.764 E0.01405
G1 X86.637 Y140.343 E0.01405
G1 X86.526 Y139.909 E0.01405
G1 X86.458 Y139.466 E0.01405
G1 X86.435 Y139.019 E0.01405
G1 X86.455 Y138.571 E0.01405
G1 X86.519 Y138.128 E0.01405
G1 X86.626 Y137.693 E0.01404
G1 X86.775 Y137.270 E0.01405
G1 X86.965 Y136.864 E0.01405
G1 X87.194 Y136.479 E0.01405
G1 X87.455 Y136.123 E0.01385
G1 X141.469 Y68.106 E2.72328
G1 X141.785 Y67.759 E0.01472
G1 X142.118 Y67.459 E0.01404
G1 X142.479 Y67.194 E0.01404
G1 X142.847 Y66.974 E0.01346
G1 X143.236 Y66.789 E0.01347
G1 X143.675 Y66.631 E0.01463
G1 X144.127 Y66.519 E0.01463
G1 X144.572 Y66.455 E0.01408
G1 X145.047 Y66.436 E0.01492
G1 X145.466 Y66.458 E0.01314
G1 X145.908 Y66.526 E0.01403
G1 X146.325 Y66.631 E0.01346
G1 X146.730 Y66.775 E0.01348
G1 X147.169 Y66.983 E0.01523
G1 X147.537 Y67.204 E0.01348
G1 X147.882 Y67.459 E0.01346
G1 X148.215 Y67.759 E0.01403
G1 X148.517 Y68.089 E0.01404
G1 X148.806 Y68.479 E0.01521
G1 X149.026 Y68.847 E0.01346
G1 X149.211 Y69.236 E0.01348
G1 X149.374 Y69.693 E0.01522
G1 X149.476 Y70.102 E0.01322
G1 X160.388 Y123.103 E1.69668
G1 X160.368 Y123.186 E0.00267
G1 X160.088 Y123.529 E0.01390
G1 X160.011 Y123.566 E0.00267
G1 X152.626 Y123.566 E0.23157
G1 X152.189 Y123.189 F10200.000
G1 F1800
G1 X152.189 Y127.811 E0.14495
G1 X160.886 Y127.811 E0.27271
G1 X160.990 Y127.896 E0.00421
G1 X163.108 Y138.181 E0.32925
G1 X163.169 Y138.598 E0.01321
G1 X163.188 Y139.009 E0.01289
G1 X163.169 Y139.402 E0.01232
G1 X163.110 Y139.808 E0.01289
G1 X163.011 Y140.207 E0.01289
G1 X162.873 Y140.595 E0.01289
G1 X162.698 Y140.967 E0.01289
G1 X162.487 Y141.320 E0.01289
G1 X162.243 Y141.650 E0.01289
G1 X161.968 Y141.955 E0.01288
G1 X161.650 Y142.243 E0.01345
G1 X161.320 Y142.487 E0.01288
G1 X160.967 Y142.698 E0.01289
G1 X160.594 Y142.873 E0.01289
G1 X160.224 Y143.005 E0.01232
G1 X159.826 Y143.106 E0.01289
G1 X159.419 Y143.167 E0.01288
G1 X159.000 Y143.189 E0.01317
G1 X91.000 Y143.189 E2.13209
G1 X90.598 Y143.169 E0.01261
G1 X90.192 Y143.110 E0.01289
G1 X89.776 Y143.005 E0.01345
G1 X89.389 Y142.866 E0.01288
G1 X89.018 Y142.690 E0.01289
G1 X88.681 Y142.488 E0.01232
G1 X88.350 Y142.243 E0.01290
G1 X88.045 Y141.968 E0.01289
G1 X87.768 Y141.664 E0.01289
G1 X87.522 Y141.334 E0.01289
G1 X87.310 Y140.982 E0.01289
G1 X87.134 Y140.611 E0.01289
G1 X86.995 Y140.224 E0.01289
G1 X86.894 Y139.826 E0.01289
G1 X86.833 Y139.419 E0.01289
G1 X86.812 Y139.009 E0.01289
G1 X86.831 Y138.598 E0.01289
G1 X86.890 Y138.192 E0.01289
G1 X86.989 Y137.793 E0.01288
G1 X87.127 Y137.405 E0.01289
G1 X87.302 Y137.033 E0.01289
G1 X87.513 Y136.680 E0.01289
G1 X87.757 Y136.350 E0.01288
G1 X141.760 Y68.345 E2.72278
G1 X142.045 Y68.032 E0.01326
G1 X142.350 Y67.757 E0.01288
G1 X142.681 Y67.512 E0.01290
G1 X143.018 Y67.310 E0.01232
G1 X143.389 Y67.134 E0.01289
G1 X143.776 Y66.995 E0.01288
G1 X144.192 Y66.890 E0.01345
G1 X144.598 Y66.831 E0.01286
G1 X145.037 Y66.813 E0.01379
G1 X145.419 Y66.833 E0.01200
G1 X145.826 Y66.894 E0.01289
G1 X146.207 Y66.989 E0.01232
G1 X146.594 Y67.127 E0.01289
G1 X146.982 Y67.310 E0.01345
G1 X147.334 Y67.523 E0.01289
G1 X147.650 Y67.757 E0.01232
G1 X147.955 Y68.032 E0.01289
G1 X148.232 Y68.336 E0.01288
G1 X148.488 Y68.681 E0.01346
G1 X148.690 Y69.018 E0.01231
G1 X148.866 Y69.389 E0.01289
G1 X149.011 Y69.793 E0.01346
G1 X149.108 Y70.182 E0.01255
G1 X159.992 Y123.050 E1.69241
G1 X159.879 Y123.189 E0.00562
G1 X152.249 Y123.189 E0.23926
G1 F8160
G1 X152.208 Y126.297 E-0.76000
G1 E-0.04000 F2100.00000
G1 Z0.800 F10200.000
G1 X158.009 Y136.607
G1 Z0.200
G1 E0.80000 F2100.00000
G1 F1800
G1 X158.494 Y136.460 E0.01591
G1 X158.985 Y136.411 E0.01545
G1 X159.504 Y136.459 E0.01635
G1 X159.991 Y136.607 E0.01597
G1 X160.439 Y136.847 E0.01592
G1 X160.831 Y137.169 E0.01592
G1 X161.153 Y137.561 E0.01592
G1 X161.393 Y138.009 E0.01592
G1 X161.540 Y138.495 E0.01592
G1 X161.590 Y139.000 E0.01592
G1 X161.540 Y139.505 E0.01592
G1 X161.393 Y139.991 E0.01592
G1 X161.153 Y140.439 E0.01592
G1 X160.831 Y140.831 E0.01592
G1 X160.439 Y141.153 E0.01592
G1 X159.991 Y141.393 E0.01592
G1 X159.505 Y141.540 E0.01592
G1 X159.000 Y141.590 E0.01592
G1 X158.495 Y141.540 E0.01592
G1 X158.009 Y141.393 E0.01592
G1 X157.561 Y141.153 E0.01592
G1 X157.169 Y140.831 E0.01592
G1 X156.847 Y140.439 E0.01592
G1 X156.607 Y139.991 E0.01592
G1 X156.460 Y139.505 E0.01592
G1 X156.410 Y139.000 E0.01592
G1 X156.460 Y138.495 E0.01592
G1 X156.607 Y138.009 E0.01592
G1 X156.847 Y137.561 E0.01592
G1 X157.169 Y137.169 E0.01592
G1 X157.561 Y136.847 E0.01592
G1 X157.956 Y136.636 E0.01404
G1 X158.134 Y136.968 F10200.000
G1 F1800
G1 X158.568 Y136.831 E0.01429
G1 X158.986 Y136.790 E0.01315
G1 X159.431 Y136.831 E0.01402
G1 X159.846 Y136.957 E0.01361
G1 X160.228 Y137.162 E0.01359
G1 X160.563 Y137.437 E0.01359
G1 X160.838 Y137.772 E0.01359
G1 X161.043 Y138.154 E0.01359
G1 X161.169 Y138.569 E0.01359
G1 X161.211 Y139.000 E0.01359
G1 X161.169 Y139.431 E0.01359
G1 X161.043 Y139.846 E0.01359
G1 X160.838 Y140.228 E0.01359
G1 X160.563 Y140.563 E0.01359
G1 X160.228 Y140.838 E0.01359
G1 X159.846 Y141.043 E0.01359
G1 X159.431 Y141.169 E0.01359
