; generated by Slic3r Prusa Edition 1.39.2 on 2018-12-26 at 22:57:59

; 

; external perimeters extrusion width = 0.45mm
; perimeters extrusion width = 0.45mm
; infill extrusion width = 0.45mm
; solid infill extrusion width = 0.45mm
; top infill extrusion width = 0.40mm
; first layer extrusion width = 0.42mm

M107
M115 U3.1.3-RC1 ; tell printer latest fw version
M201 X1000 Y1000 Z200 E5000 ; sets maximum accelerations, mm/sec^2
M203 X200 Y200 Z12 E120 ; sets maximum feedrates, mm/sec
M204 S1250 T1250 ; sets acceleration (S) and retract acceleration (T)
M205 X10 Y10 Z0.4 E2.5 ; sets the jerk limits, mm/sec
M205 S0 T0 ; sets the minimum extruding and travel feed rate, mm/sec
M83  ; extruder relative mode
M104 S220 ; set extruder temp
M140 S60 ; set bed temp
M190 S60 ; wait for bed temp
M109 S220 ; wait for extruder temp
G28 W ; home all without mesh bed level
G80 ; mesh bed leveling
G1 Y-3.0 F1000.0 ; go outside print area
G92 E0.0
G1 X60.0 E9.0  F1000.0 ; intro line
G1 X100.0 E12.5  F1000.0 ; intro line
G92 E0.0
M221 S95
M900 K30; Filament gcode
G21 ; set units to millimeters
G90 ; use absolute coordinates
M83 ; use relative distances for extrusion
;BEFORE_LAYER_CHANGE
;0.2 (0)


G1 E-0.80000 F2100.00000
G1 Z0.600 F10200.000
;AFTER_LAYER_CHANGE
;0.2
G1 X102.420 Y81.698
G1 Z0.200
G1 E0.80000 F2100.00000
M204 S1000
G1 F1800
G1 X103.200 Y80.842 E0.03631
G1 X104.067 Y80.074 E0.03631
G1 X105.019 Y79.400 E0.03656
G1 X106.031 Y78.837 E0.03631
G1 X107.105 Y78.383 E0.03656
G1 X108.221 Y78.047 E0.03656
G1 X109.360 Y77.836 E0.03631
G1 X110.717 Y77.746 E0.04265
G1 X139.258 Y77.746 E0.89488
G1 X141.112 Y77.908 E0.05835
G1 X142.918 Y78.391 E0.05861
G1 X144.613 Y79.178 E0.05861
G1 X146.146 Y80.248 E0.05861
G1 X147.471 Y81.566 E0.05861
G1 X148.547 Y83.095 E0.05861
G1 X149.340 Y84.778 E0.05835
G1 X149.832 Y86.582 E0.05861
G1 X150.004 Y88.451 E0.05886
G1 X149.996 Y121.913 E1.04918
G1 X149.843 Y123.354 E0.04544
G1 X149.500 Y124.754 E0.04518
G1 X148.970 Y126.102 E0.04544
G1 X148.263 Y127.367 E0.04544
G1 X147.533 Y128.359 E0.03859
G1 X146.689 Y129.266 E0.03884
G1 X145.747 Y130.070 E0.03884
G1 X144.718 Y130.760 E0.03884
G1 X143.617 Y131.328 E0.03884
G1 X142.458 Y131.765 E0.03884
G1 X141.256 Y132.065 E0.03884
G1 X140.028 Y132.226 E0.03884
G1 X110.224 Y132.241 E0.93448
G1 X108.816 Y132.079 E0.04442
G1 X107.442 Y131.733 E0.04442
G1 X106.119 Y131.206 E0.04468
G1 X104.883 Y130.513 E0.04442
G1 X103.879 Y129.773 E0.03910
G1 X102.968 Y128.922 E0.03910
G1 X102.161 Y127.971 E0.03910
G1 X101.469 Y126.933 E0.03910
G1 X100.903 Y125.823 E0.03910
G1 X100.469 Y124.654 E0.03910
G1 X100.173 Y123.442 E0.03910
G1 X100.019 Y122.205 E0.03910
G1 X100.006 Y88.030 E1.07152
G1 X100.164 Y86.606 E0.04493
G1 X100.510 Y85.215 E0.04493
G1 X101.037 Y83.883 E0.04493
G1 X101.737 Y82.633 E0.04493
G1 X102.385 Y81.746 E0.03443
G1 X102.690 Y81.971 F10200.000
G1 F1800
G1 X103.497 Y81.079 E0.03771
G1 X104.340 Y80.339 E0.03517
G1 X105.258 Y79.695 E0.03517
G1 X106.241 Y79.154 E0.03517
G1 X107.276 Y78.722 E0.03517
G1 X108.351 Y78.404 E0.03517
G1 X109.455 Y78.204 E0.03517
G1 X110.725 Y78.123 E0.03990
G1 X139.258 Y78.123 E0.89464
G1 X141.055 Y78.281 E0.05657
G1 X142.798 Y78.748 E0.05657
G1 X144.434 Y79.510 E0.05657
G1 X145.918 Y80.549 E0.05682
G1 X147.195 Y81.824 E0.05657
G1 X148.235 Y83.308 E0.05682
G1 X148.998 Y84.943 E0.05657
G1 X149.469 Y86.693 E0.05682
G1 X149.627 Y88.451 E0.05533
G1 X149.619 Y121.898 E1.04871
G1 X149.470 Y123.297 E0.04413
G1 X149.133 Y124.664 E0.04413
G1 X148.614 Y125.972 E0.04413
G1 X147.922 Y127.198 E0.04413
G1 X147.211 Y128.156 E0.03741
G1 X146.394 Y129.026 E0.03741
G1 X145.483 Y129.796 E0.03741
G1 X144.490 Y130.457 E0.03741
G1 X143.427 Y130.999 E0.03741
G1 X142.309 Y131.416 E0.03741
G1 X141.151 Y131.702 E0.03741
G1 X139.967 Y131.852 E0.03741
G1 X110.249 Y131.865 E0.93180
G1 X108.874 Y131.706 E0.04339
G1 X107.533 Y131.366 E0.04339
G1 X106.256 Y130.854 E0.04314
G1 X105.052 Y130.172 E0.04339
G1 X104.088 Y129.456 E0.03766
G1 X103.213 Y128.633 E0.03766
G1 X102.439 Y127.714 E0.03766
G1 X101.777 Y126.712 E0.03766
G1 X101.235 Y125.641 E0.03766
G1 X100.820 Y124.513 E0.03766
G1 X100.538 Y123.346 E0.03766
G1 X100.394 Y122.154 E0.03766
G1 X100.382 Y88.054 E1.06915
G1 X100.535 Y86.671 E0.04364
G1 X100.874 Y85.313 E0.04388
G1 X101.393 Y84.013 E0.04388
G1 X102.078 Y82.802 E0.04364
G1 X102.654 Y82.019 E0.03048
G1 F8160
G1 X103.497 Y81.079 E-0.30865
G1 X104.340 Y80.339 E-0.27421
G1 X104.933 Y79.923 E-0.17713
G1 E-0.04000 F2100.00000
G1 Z0.800 F10200.000
G1 X111.337 Y89.087
G1 Z0.200
G1 E0.80000 F2100.00000
G1 F1800
G1 X138.663 Y89.087 E0.85678
G1 X138.663 Y120.913 E0.99788
G1 X111.337 Y120.913 E0.85678
G1 X111.337 Y89.147 E0.99600
G1 X110.960 Y88.710 F10200.000
G1 F1800
G1 X139.040 Y88.710 E0.88043
G1 X139.040 Y121.290 E1.02152
G1 X110.960 Y121.290 E0.88043
G1 X110.960 Y88.770 E1.01964
G1 X111.344 Y88.823 F10200.000
G1 F8160
G1 X114.069 Y88.763 E-0.76000
G1 E-0.04000 F2100.00000
G1 Z0.800 F10200.000
G1 X138.550 Y89.964
G1 Z0.200
G1 E0.80000 F2100.00000
G1 F1800
G1 X137.956 Y89.370 E0.02640
G1 X137.421 Y89.370 E0.01679
G1 X138.380 Y90.329 E0.04260
G1 X138.380 Y90.863 E0.01679
G1 X136.887 Y89.370 E0.06634
G1 X136.353 Y89.370 E0.01679
G1 X138.380 Y91.397 E0.09007
G1 X138.380 Y91.932 E0.01679
G1 X135.818 Y89.370 E0.11381
G1 X135.284 Y89.370 E0.01679
G1 X138.380 Y92.466 E0.13755
G1 X138.380 Y93.000 E0.01679
G1 X134.750 Y89.370 E0.16129
G1 X134.215 Y89.370 E0.01679
G1 X138.380 Y93.535 E0.18503
G1 X138.380 Y94.069 E0.01679
G1 X133.681 Y89.370 E0.20877
G1 X133.147 Y89.370 E0.01679
G1 X138.380 Y94.603 E0.23251
G1 X138.380 Y95.137 E0.01679
G1 X132.613 Y89.370 E0.25625
G1 X132.078 Y89.370 E0.01679
G1 X138.380 Y95.672 E0.27999
G1 X138.380 Y96.206 E0.01679
G1 X131.544 Y89.370 E0.30372
G1 X131.010 Y89.370 E0.01679
G1 X138.380 Y96.740 E0.32746
G1 X138.380 Y97.275 E0.01679
G1 X130.475 Y89.370 E0.35120
G1 X129.941 Y89.370 E0.01679
G1 X138.380 Y97.809 E0.37494
G1 X138.380 Y98.343 E0.01679
G1 X129.407 Y89.370 E0.39868
G1 X128.872 Y89.370 E0.01679
G1 X138.380 Y98.878 E0.42242
G1 X138.380 Y99.412 E0.01679
G1 X128.338 Y89.370 E0.44616
G1 X127.804 Y89.370 E0.01679
G1 X138.380 Y99.946 E0.46990
G1 X138.380 Y100.481 E0.01679
G1 X127.269 Y89.370 E0.49363
G1 X126.735 Y89.370 E0.01679
G1 X138.380 Y101.015 E0.51737
G1 X138.380 Y101.549 E0.01679
G1 X126.201 Y89.370 E0.54111
G1 X125.666 Y89.370 E0.01679
G1 X138.380 Y102.084 E0.56485
G1 X138.380 Y102.618 E0.01679
G1 X125.132 Y89.370 E0.58859
G1 X124.598 Y89.370 E0.01679
G1 X138.380 Y103.152 E0.61233
G1 X138.380 Y103.687 E0.01679
G1 X124.063 Y89.370 E0.63607
G1 X123.529 Y89.370 E0.01679
G1 X138.380 Y104.221 E0.65981
G1 X138.380 Y104.755 E0.01679
G1 X122.995 Y89.370 E0.68355
G1 X122.461 Y89.370 E0.01679
G1 X138.380 Y105.289 E0.70728
G1 X138.380 Y105.824 E0.01679
G1 X121.926 Y89.370 E0.73102
G1 X121.392 Y89.370 E0.01679
G1 X138.380 Y106.358 E0.75476
G1 X138.380 Y106.892 E0.01679
G1 X120.858 Y89.370 E0.77850
G1 X120.323 Y89.370 E0.01679
G1 X138.380 Y107.427 E0.80224
G1 X138.380 Y107.961 E0.01679
G1 X119.789 Y89.370 E0.82598
G1 X119.255 Y89.370 E0.01679
G1 X138.380 Y108.495 E0.84972
G1 X138.380 Y109.030 E0.01679
G1 X118.720 Y89.370 E0.87346
G1 X118.186 Y89.370 E0.01679
G1 X138.380 Y109.564 E0.89720
G1 X138.380 Y110.098 E0.01679
G1 X117.652 Y89.370 E0.92093
G1 X117.117 Y89.370 E0.01679
G1 X138.380 Y110.633 E0.94467
G1 X138.380 Y111.167 E0.01679
G1 X116.583 Y89.370 E0.96841
G1 X116.049 Y89.370 E0.01679
G1 X138.380 Y111.701 E0.99215
G1 X138.380 Y112.236 E0.01679
G1 X115.514 Y89.370 E1.01589
G1 X114.980 Y89.370 E0.01679
G1 X138.380 Y112.770 E1.03963
G1 X138.380 Y113.304 E0.01679
G1 X114.446 Y89.370 E1.06337
G1 X113.911 Y89.370 E0.01679
G1 X138.380 Y113.839 E1.08711
G1 X138.380 Y114.373 E0.01679
G1 X113.377 Y89.370 E1.11084
G1 X112.843 Y89.370 E0.01679
G1 X138.380 Y114.907 E1.13458
G1 X138.380 Y115.441 E0.01679
G1 X112.309 Y89.370 E1.15832
G1 X111.774 Y89.370 E0.01679
G1 X138.380 Y115.976 E1.18206
G1 X138.380 Y116.510 E0.01679
G1 X111.620 Y89.750 E1.18892
G1 X111.620 Y90.284 E0.01679
G1 X138.380 Y117.044 E1.18892
G1 X138.380 Y117.579 E0.01679
G1 X111.620 Y90.818 E1.18892
G1 X111.620 Y91.353 E0.01679
G1 X138.380 Y118.113 E1.18892
G1 X138.380 Y118.647 E0.01679
G1 X111.620 Y91.887 E1.18892
G1 X111.620 Y92.421 E0.01679
G1 X138.380 Y119.182 E1.18892
G1 X138.380 Y119.716 E0.01679
G1 X111.620 Y92.956 E1.18892
G1 X111.620 Y93.490 E0.01679
G1 X138.380 Y120.250 E1.18892
G1 X138.380 Y120.630 E0.01193
G1 X138.226 Y120.630 E0.00485
G1 X111.620 Y94.024 E1.18206
G1 X111.620 Y94.559 E0.01679
G1 X137.691 Y120.630 E1.15832
G1 X137.157 Y120.630 E0.01679
G1 X111.620 Y95.093 E1.13458
G1 X111.620 Y95.627 E0.01679
G1 X136.623 Y120.630 E1.11084
G1 X136.088 Y120.630 E0.01679
G1 X111.620 Y96.162 E1.08710
G1 X111.620 Y96.696 E0.01679
G1 X135.554 Y120.630 E1.06336
G1 X135.020 Y120.630 E0.01679
G1 X111.620 Y97.230 E1.03962
G1 X111.620 Y97.765 E0.01679
G1 X134.485 Y120.630 E1.01588
G1 X133.951 Y120.630 E0.01679
G1 X111.620 Y98.299 E0.99214
G1 X111.620 Y98.833 E0.01679
G1 X133.417 Y120.630 E0.96841
G1 X132.882 Y120.630 E0.01679
G1 X111.620 Y99.368 E0.94467
G1 X111.620 Y99.902 E0.01679
G1 X132.348 Y120.630 E0.92093
G1 X131.814 Y120.630 E0.01679
G1 X111.620 Y100.436 E0.89719
G1 X111.620 Y100.970 E0.01679
G1 X131.280 Y120.630 E0.87345
G1 X130.745 Y120.630 E0.01679
G1 X111.620 Y101.505 E0.84971
G1 X111.620 Y102.039 E0.01679
G1 X130.211 Y120.630 E0.82597
G1 X129.677 Y120.630 E0.01679
G1 X111.620 Y102.573 E0.80223
G1 X111.620 Y103.108 E0.01679
G1 X129.142 Y120.630 E0.77849
G1 X128.608 Y120.630 E0.01679
G1 X111.620 Y103.642 E0.75476
G1 X111.620 Y104.176 E0.01679
G1 X128.074 Y120.630 E0.73102
G1 X127.539 Y120.630 E0.01679
G1 X111.620 Y104.711 E0.70728
G1 X111.620 Y105.245 E0.01679
G1 X127.005 Y120.630 E0.68354
G1 X126.471 Y120.630 E0.01679
G1 X111.620 Y105.779 E0.65980
G1 X111.620 Y106.314 E0.01679
G1 X125.936 Y120.630 E0.63606
G1 X125.402 Y120.630 E0.01679
G1 X111.620 Y106.848 E0.61232
G1 X111.620 Y107.382 E0.01679
G1 X124.868 Y120.630 E0.58858
G1 X124.333 Y120.630 E0.01679
G1 X111.620 Y107.917 E0.56485
G1 X111.620 Y108.451 E0.01679
G1 X123.799 Y120.630 E0.54111
G1 X123.265 Y120.630 E0.01679
G1 X111.620 Y108.985 E0.51737
G1 X111.620 Y109.519 E0.01679
G1 X122.731 Y120.630 E0.49363
G1 X122.196 Y120.630 E0.01679
G1 X111.620 Y110.054 E0.46989
G1 X111.620 Y110.588 E0.01679
G1 X121.662 Y120.630 E0.44615
G1 X121.128 Y120.630 E0.01679
G1 X111.620 Y111.122 E0.42241
G1 X111.620 Y111.657 E0.01679
G1 X120.593 Y120.630 E0.39867
G1 X120.059 Y120.630 E0.01679
G1 X111.620 Y112.191 E0.37493
G1 X111.620 Y112.725 E0.01679
G1 X119.525 Y120.630 E0.35120
G1 X118.990 Y120.630 E0.01679
G1 X111.620 Y113.260 E0.32746
G1 X111.620 Y113.794 E0.01679
G1 X118.456 Y120.630 E0.30372
G1 X117.922 Y120.630 E0.01679
G1 X111.620 Y114.328 E0.27998
G1 X111.620 Y114.863 E0.01679
G1 X117.387 Y120.630 E0.25624
G1 X116.853 Y120.630 E0.01679
G1 X111.620 Y115.397 E0.23250
G1 X111.620 Y115.931 E0.01679
G1 X116.319 Y120.630 E0.20876
G1 X115.784 Y120.630 E0.01679
G1 X111.620 Y116.466 E0.18502
G1 X111.620 Y117.000 E0.01679
G1 X115.250 Y120.630 E0.16129
G1 X114.716 Y120.630 E0.01679
G1 X111.620 Y117.534 E0.13755
G1 X111.620 Y118.069 E0.01679
G1 X114.181 Y120.630 E0.11381
G1 X113.647 Y120.630 E0.01679
G1 X111.620 Y118.603 E0.09007
G1 X111.620 Y119.137 E0.01679
G1 X113.113 Y120.630 E0.06633
G1 X112.579 Y120.630 E0.01679
G1 X111.620 Y119.671 E0.04259
G1 X111.620 Y120.206 E0.01679
G1 X112.214 Y120.800 E0.02639
M106 S255
;BEFORE_LAYER_CHANGE
;0.4 (1)


G1 F8160
G1 X111.620 Y120.206 E-0.20538
G1 X111.620 Y119.671 E-0.13063
G1 X112.579 Y120.630 E-0.33146
G1 X112.957 Y120.630 E-0.09253
G1 E-0.04000 F2100.00000
G1 Z0.800 F10200.000
;AFTER_LAYER_CHANGE
;0.4
G1 X111.382 Y120.868
G1 Z0.400
G1 E0.80000 F2100.00000
M204 S800
G1 F2700
G1 X111.382 Y89.132 E1.07422
G1 X138.618 Y89.132 E0.92190
G1 X138.618 Y120.868 E1.07422
G1 X111.442 Y120.868 E0.91987
M204 S1000
G1 X110.975 Y121.275 F10200.000
M204 S800
G1 F2100
G1 X110.975 Y88.725 E1.10178
G1 X139.025 Y88.725 E0.94946
G1 X139.025 Y121.275 E1.10178
G1 X111.035 Y121.275 E0.94743
M204 S1000
G1 X111.069 Y120.886 F10200.000
G1 F8160
G1 X111.029 Y118.166 E-0.76000
G1 E-0.04000 F2100.00000
G1 Z1.000 F10200.000
G1 X137.667 Y120.746
G1 Z0.400
G1 E0.80000 F2100.00000
M204 S1500
G1 F9897
G1 X138.313 Y120.100 E0.03114
G1 X138.313 Y119.520 E0.01977
G1 X137.270 Y120.563 E0.05027
G1 X136.690 Y120.563 E0.01977
G1 X138.313 Y118.940 E0.07823
G1 X138.313 Y118.360 E0.01977
G1 X136.110 Y120.563 E0.10618
G1 X135.530 Y120.563 E0.01977
G1 X138.313 Y117.780 E0.13414
G1 X138.313 Y117.201 E0.01977
G1 X134.951 Y120.563 E0.16210
G1 X134.371 Y120.563 E0.01977
G1 X138.313 Y116.621 E0.19005
G1 X138.313 Y116.041 E0.01977
G1 X133.791 Y120.563 E0.21801
G1 X133.211 Y120.563 E0.01977
G1 X138.313 Y115.461 E0.24597
G1 X138.313 Y114.881 E0.01977
G1 X132.631 Y120.563 E0.27393
G1 X132.051 Y120.563 E0.01977
G1 X138.313 Y114.301 E0.30188
G1 X138.313 Y113.722 E0.01977
G1 X131.472 Y120.563 E0.32984
G1 X130.892 Y120.563 E0.01977
G1 X138.313 Y113.142 E0.35780
G1 X138.313 Y112.562 E0.01977
G1 X130.312 Y120.563 E0.38575
G1 X129.732 Y120.563 E0.01977
G1 X138.313 Y111.982 E0.41371
G1 X138.313 Y111.402 E0.01977
G1 X129.152 Y120.563 E0.44167
G1 X128.572 Y120.563 E0.01977
G1 X138.313 Y110.822 E0.46962
G1 X138.313 Y110.242 E0.01977
G1 X127.992 Y120.563 E0.49758
G1 X127.413 Y120.563 E0.01977
G1 X138.313 Y109.663 E0.52554
G1 X138.313 Y109.083 E0.01977
G1 X126.833 Y120.563 E0.55350
G1 X126.253 Y120.563 E0.01977
G1 X138.313 Y108.503 E0.58145
G1 X138.313 Y107.923 E0.01977
G1 X125.673 Y120.563 E0.60941
G1 X125.093 Y120.563 E0.01977
G1 X138.313 Y107.343 E0.63737
G1 X138.313 Y106.763 E0.01977
G1 X124.513 Y120.563 E0.66532
G1 X123.934 Y120.563 E0.01977
G1 X138.313 Y106.184 E0.69328
G1 X138.313 Y105.604 E0.01977
G1 X123.354 Y120.563 E0.72124
G1 X122.774 Y120.563 E0.01977
G1 X138.313 Y105.024 E0.74920
G1 X138.313 Y104.444 E0.01977
G1 X122.194 Y120.563 E0.77715
G1 X121.614 Y120.563 E0.01977
G1 X138.313 Y103.864 E0.80511
G1 X138.313 Y103.284 E0.01977
G1 X121.034 Y120.563 E0.83307
G1 X120.454 Y120.563 E0.01977
G1 X138.313 Y102.704 E0.86102
G1 X138.313 Y102.125 E0.01977
G1 X119.875 Y120.563 E0.88898
G1 X119.295 Y120.563 E0.01977
G1 X138.313 Y101.545 E0.91694
G1 X138.313 Y100.965 E0.01977
G1 X118.715 Y120.563 E0.94489
G1 X118.135 Y120.563 E0.01977
G1 X138.313 Y100.385 E0.97285
G1 X138.313 Y99.805 E0.01977
G1 X117.555 Y120.563 E1.00081
G1 X116.975 Y120.563 E0.01977
G1 X138.313 Y99.225 E1.02877
G1 X138.313 Y98.646 E0.01977
G1 X116.396 Y120.563 E1.05672
G1 X115.816 Y120.563 E0.01977
G1 X138.313 Y98.066 E1.08468
G1 X138.313 Y97.486 E0.01977
G1 X115.236 Y120.563 E1.11264
G1 X114.656 Y120.563 E0.01977
G1 X138.313 Y96.906 E1.14059
G1 X138.313 Y96.326 E0.01977
G1 X114.076 Y120.563 E1.16855
G1 X113.496 Y120.563 E0.01977
G1 X138.313 Y95.746 E1.19651
G1 X138.313 Y95.166 E0.01977
G1 X112.916 Y120.563 E1.22447
G1 X112.337 Y120.563 E0.01977
G1 X138.313 Y94.587 E1.25242
G1 X138.313 Y94.007 E0.01977
G1 X111.757 Y120.563 E1.28038
G1 X111.687 Y120.563 E0.00236
G1 X111.687 Y120.052 E0.01740
G1 X138.313 Y93.427 E1.28372
G1 X138.313 Y92.847 E0.01977
G1 X111.687 Y119.472 E1.28372
G1 X111.687 Y118.892 E0.01977
G1 X138.313 Y92.267 E1.28372
G1 X138.313 Y91.687 E0.01977
G1 X111.687 Y118.313 E1.28372
G1 X111.687 Y117.733 E0.01977
G1 X138.313 Y91.107 E1.28372
G1 X138.313 Y90.528 E0.01977
G1 X111.687 Y117.153 E1.28372
G1 X111.687 Y116.573 E0.01977
G1 X138.313 Y89.948 E1.28372
G1 X138.313 Y89.437 E0.01740
G1 X138.243 Y89.437 E0.00237
G1 X111.687 Y115.993 E1.28038
G1 X111.687 Y115.413 E0.01977
G1 X137.663 Y89.437 E1.25242
G1 X137.084 Y89.437 E0.01977
G1 X111.687 Y114.834 E1.22446
G1 X111.687 Y114.254 E0.01977
G1 X136.504 Y89.437 E1.19650
G1 X135.924 Y89.437 E0.01977
G1 X111.687 Y113.674 E1.16855
G1 X111.687 Y113.094 E0.01977
G1 X135.344 Y89.437 E1.14059
G1 X134.764 Y89.437 E0.01977
G1 X111.687 Y112.514 E1.11263
G1 X111.687 Y111.934 E0.01977
G1 X134.184 Y89.437 E1.08468
G1 X133.604 Y89.437 E0.01977
G1 X111.687 Y111.354 E1.05672
G1 X111.687 Y110.775 E0.01977
G1 X133.025 Y89.437 E1.02876
