; generated by Slic3r Prusa Edition 1.39.2 on 2018-12-26 at 22:58:40

; 

; external perimeters extrusion width = 0.45mm
; perimeters extrusion width = 0.45mm
; infill extrusion width = 0.45mm
; solid infill extrusion width = 0.45mm
; top infill extrusion width = 0.40mm
; first layer extrusion width = 0.42mm

M107
M115 U3.1.3-RC1 ; tell printer latest fw version
M201 X1000 Y1000 Z200 E5000 ; sets maximum accelerations, mm/sec^2
M203 X200 Y200 Z12 E120 ; sets maximum feedrates, mm/sec
M204 S1250 T1250 ; sets acceleration (S) and retract acceleration (T)
M205 X10 Y10 Z0.4 E2.5 ; sets the jerk limits, mm/sec
M205 S0 T0 ; sets the minimum extruding and travel feed rate, mm/sec
M83  ; extruder relative mode
M104 S220 ; set extruder temp
M140 S60 ; set bed temp
M190 S60 ; wait for bed temp
M109 S220 ; wait for extruder temp
G28 W ; home all without mesh bed level
G80 ; mesh bed leveling
G1 Y-3.0 F1000.0 ; go outside print area
G92 E0.0
G1 X60.0 E9.0  F1000.0 ; intro line
G1 X100.0 E12.5  F1000.0 ; intro line
G92 E0.0
M221 S95
M900 K30; Filament gcode
G21 ; set units to millimeters
G90 ; use absolute coordinates
M83 ; use relative distances for extrusion
;BEFORE_LAYER_CHANGE
;0.2 (0)


G1 E-0.80000 F2100.00000
G1 Z0.600 F10200.000
;AFTER_LAYER_CHANGE
;0.2
G1 X103.819 Y82.153
G1 Z0.200
G1 E0.80000 F2100.00000
M204 S1000
G1 F1800
G1 X104.579 Y81.226 E0.03758
G1 X105.437 Y80.390 E0.03758
G1 X106.390 Y79.650 E0.03783
G1 X107.420 Y79.021 E0.03783
G1 X108.506 Y78.515 E0.03758
G1 X109.650 Y78.130 E0.03783
G1 X110.821 Y77.878 E0.03758
G1 X112.443 Y77.746 E0.05101
G1 X137.508 Y77.746 E0.78590
G1 X139.354 Y77.907 E0.05810
G1 X141.145 Y78.382 E0.05810
G1 X142.828 Y79.158 E0.05810
G1 X144.359 Y80.217 E0.05835
G1 X145.679 Y81.517 E0.05810
G1 X146.760 Y83.032 E0.05835
G1 X147.561 Y84.703 E0.05810
G1 X148.065 Y86.494 E0.05835
G1 X148.254 Y88.443 E0.06139
G1 X148.249 Y121.824 E1.04664
G1 X148.130 Y123.130 E0.04113
G1 X147.852 Y124.412 E0.04113
G1 X147.421 Y125.651 E0.04113
G1 X146.838 Y126.835 E0.04138
G1 X146.143 Y127.899 E0.03986
G1 X145.322 Y128.880 E0.04011
G1 X144.390 Y129.757 E0.04011
G1 X143.361 Y130.517 E0.04011
G1 X142.249 Y131.149 E0.04011
G1 X141.069 Y131.645 E0.04011
G1 X139.839 Y131.997 E0.04011
G1 X138.576 Y132.200 E0.04011
G1 X137.517 Y132.254 E0.03326
G1 X112.030 Y132.244 E0.79911
G1 X110.766 Y132.113 E0.03986
G1 X109.518 Y131.832 E0.04011
G1 X108.312 Y131.405 E0.04011
G1 X107.165 Y130.838 E0.04011
G1 X106.081 Y130.128 E0.04062
G1 X105.084 Y129.288 E0.04087
G1 X104.196 Y128.334 E0.04087
G1 X103.431 Y127.279 E0.04087
G1 X102.801 Y126.147 E0.04062
G1 X102.311 Y124.939 E0.04087
G1 X101.971 Y123.689 E0.04062
G1 X101.783 Y122.399 E0.04087
G1 X101.753 Y88.119 E1.07481
G1 X101.878 Y86.822 E0.04087
G1 X102.156 Y85.557 E0.04062
G1 X102.585 Y84.334 E0.04062
G1 X103.162 Y83.165 E0.04087
G1 X103.786 Y82.203 E0.03595
G1 X104.103 Y82.410 F10200.000
G1 F1800
G1 X104.886 Y81.450 E0.03886
G1 X105.721 Y80.643 E0.03641
G1 X106.642 Y79.935 E0.03641
G1 X107.636 Y79.334 E0.03641
G1 X108.690 Y78.848 E0.03641
G1 X109.793 Y78.482 E0.03641
G1 X110.929 Y78.243 E0.03641
G1 X112.451 Y78.123 E0.04787
G1 X137.508 Y78.123 E0.78565
G1 X139.297 Y78.280 E0.05632
G1 X141.033 Y78.743 E0.05632
G1 X142.663 Y79.498 E0.05632
G1 X144.138 Y80.524 E0.05632
G1 X145.414 Y81.788 E0.05632
G1 X146.453 Y83.253 E0.05632
G1 X147.224 Y84.876 E0.05632
G1 X147.704 Y86.615 E0.05657
G1 X147.877 Y88.451 E0.05781
G1 X147.872 Y121.810 E1.04596
G1 X147.756 Y123.078 E0.03990
G1 X147.484 Y124.329 E0.04015
G1 X147.060 Y125.537 E0.04015
G1 X146.490 Y126.684 E0.04015
G1 X145.812 Y127.713 E0.03865
G1 X145.016 Y128.655 E0.03865
G1 X144.114 Y129.496 E0.03865
G1 X143.120 Y130.224 E0.03865
G1 X142.045 Y130.829 E0.03865
G1 X140.907 Y131.302 E0.03865
G1 X139.720 Y131.637 E0.03865
G1 X138.503 Y131.829 E0.03865
G1 X112.054 Y131.868 E0.82926
G1 X110.820 Y131.740 E0.03890
G1 X109.602 Y131.464 E0.03915
G1 X108.426 Y131.044 E0.03915
G1 X107.316 Y130.490 E0.03890
G1 X106.274 Y129.802 E0.03915
G1 X105.316 Y128.989 E0.03940
G1 X104.469 Y128.071 E0.03915
G1 X103.733 Y127.052 E0.03940
G1 X103.126 Y125.952 E0.03940
G1 X102.660 Y124.794 E0.03915
G1 X102.334 Y123.580 E0.03940
G1 X102.157 Y122.336 E0.03940
G1 X102.129 Y88.142 E1.07214
G1 X102.250 Y86.883 E0.03965
G1 X102.522 Y85.648 E0.03965
G1 X102.943 Y84.456 E0.03965
G1 X103.510 Y83.316 E0.03990
G1 X104.070 Y82.460 E0.03207
G1 F8160
G1 X104.886 Y81.450 E-0.31763
G1 X105.721 Y80.643 E-0.28393
G1 X106.235 Y80.248 E-0.15845
G1 E-0.04000 F2100.00000
G1 Z0.800 F10200.000
G1 X118.965 Y98.894
G1 Z0.200
G1 E0.80000 F2100.00000
G1 F1800
G1 X119.552 Y98.362 E0.02486
G1 X120.229 Y97.860 E0.02642
G1 X120.952 Y97.426 E0.02642
G1 X121.714 Y97.066 E0.02642
G1 X122.507 Y96.782 E0.02642
G1 X123.325 Y96.577 E0.02643
G1 X124.158 Y96.454 E0.02642
G1 X124.884 Y96.418 E0.02279
G1 X125.838 Y96.453 E0.02992
G1 X126.675 Y96.577 E0.02654
G1 X127.493 Y96.782 E0.02643
G1 X128.286 Y97.066 E0.02642
G1 X129.048 Y97.426 E0.02642
G1 X129.771 Y97.860 E0.02643
G1 X130.448 Y98.362 E0.02642
G1 X131.073 Y98.928 E0.02643
G1 X131.638 Y99.552 E0.02642
G1 X132.141 Y100.229 E0.02642
G1 X132.574 Y100.952 E0.02643
G1 X132.934 Y101.714 E0.02642
G1 X133.218 Y102.507 E0.02642
G1 X133.423 Y103.325 E0.02642
G1 X133.546 Y104.158 E0.02642
G1 X133.588 Y105.000 E0.02642
G1 X133.546 Y105.842 E0.02642
G1 X133.423 Y106.675 E0.02642
G1 X133.218 Y107.493 E0.02642
G1 X132.934 Y108.286 E0.02642
G1 X132.574 Y109.048 E0.02642
G1 X132.141 Y109.771 E0.02643
G1 X131.638 Y110.448 E0.02642
G1 X131.073 Y111.072 E0.02642
G1 X130.448 Y111.638 E0.02643
G1 X129.771 Y112.140 E0.02642
G1 X129.048 Y112.574 E0.02643
G1 X128.286 Y112.934 E0.02642
G1 X127.493 Y113.218 E0.02642
G1 X126.675 Y113.423 E0.02643
G1 X125.842 Y113.546 E0.02642
G1 X125.000 Y113.588 E0.02642
G1 X124.158 Y113.546 E0.02642
G1 X123.325 Y113.423 E0.02642
G1 X122.507 Y113.218 E0.02643
G1 X121.714 Y112.934 E0.02642
G1 X120.952 Y112.574 E0.02642
G1 X120.229 Y112.140 E0.02642
G1 X119.552 Y111.638 E0.02642
G1 X118.928 Y111.072 E0.02642
G1 X118.362 Y110.448 E0.02642
G1 X117.860 Y109.771 E0.02642
G1 X117.426 Y109.048 E0.02642
G1 X117.066 Y108.286 E0.02642
G1 X116.782 Y107.493 E0.02642
G1 X116.577 Y106.675 E0.02642
G1 X116.454 Y105.842 E0.02642
G1 X116.412 Y105.000 E0.02642
G1 X116.454 Y104.158 E0.02642
G1 X116.577 Y103.325 E0.02642
G1 X116.782 Y102.507 E0.02642
G1 X117.066 Y101.714 E0.02642
G1 X117.426 Y100.952 E0.02642
G1 X117.860 Y100.229 E0.02642
G1 X118.362 Y99.552 E0.02642
G1 X118.921 Y98.935 E0.02611
G1 X119.194 Y99.194 F10200.000
G1 F1800
G1 X119.791 Y98.653 E0.02526
G1 X120.439 Y98.173 E0.02526
G1 X121.130 Y97.759 E0.02526
G1 X121.858 Y97.415 E0.02526
G1 X122.617 Y97.143 E0.02526
G1 X123.398 Y96.948 E0.02526
G1 X124.195 Y96.829 E0.02526
G1 X124.887 Y96.795 E0.02170
G1 X125.803 Y96.829 E0.02876
G1 X126.602 Y96.948 E0.02530
G1 X127.383 Y97.143 E0.02526
G1 X128.142 Y97.415 E0.02526
G1 X128.870 Y97.759 E0.02526
G1 X129.561 Y98.173 E0.02526
G1 X130.208 Y98.653 E0.02526
G1 X130.806 Y99.194 E0.02526
G1 X131.347 Y99.791 E0.02526
G1 X131.827 Y100.439 E0.02526
G1 X132.241 Y101.130 E0.02526
G1 X132.585 Y101.858 E0.02526
G1 X132.857 Y102.617 E0.02526
G1 X133.053 Y103.398 E0.02526
G1 X133.171 Y104.195 E0.02526
G1 X133.210 Y105.000 E0.02526
G1 X133.171 Y105.805 E0.02526
G1 X133.053 Y106.602 E0.02526
G1 X132.857 Y107.383 E0.02526
G1 X132.585 Y108.142 E0.02526
G1 X132.241 Y108.870 E0.02526
G1 X131.827 Y109.561 E0.02526
G1 X131.347 Y110.209 E0.02526
G1 X130.806 Y110.806 E0.02526
G1 X130.208 Y111.347 E0.02526
G1 X129.561 Y111.827 E0.02526
G1 X128.870 Y112.241 E0.02526
G1 X128.142 Y112.585 E0.02526
G1 X127.383 Y112.857 E0.02526
G1 X126.602 Y113.052 E0.02526
G1 X125.805 Y113.171 E0.02526
G1 X125.000 Y113.210 E0.02526
G1 X124.195 Y113.171 E0.02526
G1 X123.398 Y113.052 E0.02526
G1 X122.617 Y112.857 E0.02526
G1 X121.858 Y112.585 E0.02526
G1 X121.130 Y112.241 E0.02526
G1 X120.439 Y111.827 E0.02526
G1 X119.791 Y111.347 E0.02526
G1 X119.194 Y110.806 E0.02526
G1 X118.653 Y110.209 E0.02526
G1 X118.173 Y109.561 E0.02526
G1 X117.759 Y108.870 E0.02526
G1 X117.415 Y108.142 E0.02526
G1 X117.143 Y107.383 E0.02526
G1 X116.948 Y106.602 E0.02526
G1 X116.829 Y105.805 E0.02526
G1 X116.790 Y105.000 E0.02526
G1 X116.829 Y104.195 E0.02526
G1 X116.948 Y103.398 E0.02526
G1 X117.143 Y102.617 E0.02526
G1 X117.415 Y101.858 E0.02526
G1 X117.759 Y101.130 E0.02526
G1 X118.173 Y100.439 E0.02526
G1 X118.653 Y99.791 E0.02526
G1 X119.154 Y99.239 E0.02338
G1 X119.091 Y98.808 F10200.000
G1 F8160
G1 X119.791 Y98.653 E-0.21159
G1 X120.439 Y98.173 E-0.19699
G1 X121.130 Y97.759 E-0.19699
G1 X121.701 Y97.489 E-0.15444
G1 E-0.04000 F2100.00000
G1 Z0.800 F10200.000
G1 X113.087 Y89.087
G1 Z0.200
G1 E0.80000 F2100.00000
G1 F1800
G1 X136.913 Y89.087 E0.74704
G1 X136.913 Y120.913 E0.99788
G1 X113.087 Y120.913 E0.74704
G1 X113.087 Y89.147 E0.99600
G1 X112.710 Y88.710 F10200.000
G1 F1800
G1 X137.290 Y88.710 E0.77069
G1 X137.290 Y121.290 E1.02152
G1 X112.710 Y121.290 E0.77069
G1 X112.710 Y88.770 E1.01964
G1 X113.091 Y88.831 F10200.000
G1 F8160
G1 X115.819 Y88.762 E-0.76000
G1 E-0.04000 F2100.00000
G1 Z0.800 F10200.000
G1 X122.534 Y101.995
G1 Z0.200
G1 E0.80000 F2100.00000
G1 F1800
G1 X122.840 Y101.767 E0.01196
G1 X123.167 Y101.571 E0.01196
G1 X123.512 Y101.408 E0.01196
G1 X123.871 Y101.280 E0.01197
G1 X124.242 Y101.187 E0.01196
G1 X124.619 Y101.131 E0.01196
G1 X124.992 Y101.113 E0.01170
G1 X125.380 Y101.131 E0.01220
G1 X125.758 Y101.187 E0.01198
G1 X126.129 Y101.280 E0.01196
G1 X126.488 Y101.408 E0.01197
G1 X126.833 Y101.571 E0.01196
G1 X127.160 Y101.767 E0.01196
G1 X127.466 Y101.995 E0.01196
G1 X127.749 Y102.251 E0.01196
G1 X128.005 Y102.534 E0.01196
G1 X128.233 Y102.840 E0.01196
G1 X128.429 Y103.167 E0.01196
G1 X128.592 Y103.512 E0.01196
G1 X128.720 Y103.871 E0.01196
G1 X128.813 Y104.242 E0.01196
G1 X128.869 Y104.619 E0.01196
G1 X128.888 Y105.000 E0.01196
G1 X128.869 Y105.381 E0.01196
G1 X128.813 Y105.758 E0.01196
G1 X128.720 Y106.129 E0.01196
G1 X128.592 Y106.488 E0.01196
G1 X128.429 Y106.833 E0.01196
G1 X128.233 Y107.160 E0.01196
G1 X128.005 Y107.466 E0.01196
G1 X127.749 Y107.749 E0.01196
G1 X127.466 Y108.005 E0.01196
G1 X127.160 Y108.233 E0.01196
G1 X126.833 Y108.429 E0.01196
G1 X126.488 Y108.592 E0.01196
G1 X126.129 Y108.720 E0.01197
G1 X125.758 Y108.813 E0.01196
G1 X125.381 Y108.869 E0.01196
G1 X125.000 Y108.888 E0.01196
G1 X124.619 Y108.869 E0.01196
G1 X124.242 Y108.813 E0.01196
G1 X123.871 Y108.720 E0.01196
G1 X123.512 Y108.592 E0.01197
G1 X123.167 Y108.429 E0.01196
G1 X122.840 Y108.233 E0.01196
G1 X122.534 Y108.005 E0.01196
G1 X122.251 Y107.749 E0.01196
G1 X121.995 Y107.466 E0.01196
G1 X121.767 Y107.160 E0.01196
G1 X121.571 Y106.833 E0.01196
G1 X121.408 Y106.488 E0.01196
G1 X121.280 Y106.129 E0.01196
G1 X121.187 Y105.758 E0.01196
G1 X121.131 Y105.381 E0.01196
G1 X121.112 Y105.000 E0.01196
G1 X121.131 Y104.619 E0.01196
G1 X121.187 Y104.242 E0.01196
G1 X121.280 Y103.871 E0.01196
G1 X121.408 Y103.512 E0.01196
G1 X121.571 Y103.167 E0.01196
G1 X121.767 Y102.840 E0.01196
G1 X121.995 Y102.534 E0.01196
G1 X122.251 Y102.251 E0.01196
G1 X122.489 Y102.035 E0.01008
G1 X122.742 Y102.314 F10200.000
G1 F1800
G1 X123.050 Y102.081 E0.01210
G1 X123.345 Y101.904 E0.01080
G1 X123.657 Y101.757 E0.01080
G1 X123.981 Y101.641 E0.01080
G1 X124.315 Y101.557 E0.01080
G1 X124.656 Y101.507 E0.01080
G1 X124.992 Y101.490 E0.01055
G1 X125.344 Y101.507 E0.01104
G1 X125.685 Y101.557 E0.01081
G1 X126.019 Y101.641 E0.01080
G1 X126.343 Y101.757 E0.01080
G1 X126.655 Y101.904 E0.01080
G1 X126.950 Y102.081 E0.01080
G1 X127.227 Y102.287 E0.01080
G1 X127.482 Y102.518 E0.01080
G1 X127.713 Y102.773 E0.01080
G1 X127.919 Y103.050 E0.01080
G1 X128.096 Y103.345 E0.01080
G1 X128.243 Y103.657 E0.01080
G1 X128.359 Y103.981 E0.01080
G1 X128.443 Y104.315 E0.01080
G1 X128.493 Y104.656 E0.01080
G1 X128.510 Y105.000 E0.01080
G1 X128.493 Y105.344 E0.01080
G1 X128.443 Y105.685 E0.01080
G1 X128.359 Y106.019 E0.01080
G1 X128.243 Y106.343 E0.01080
G1 X128.096 Y106.655 E0.01080
G1 X127.919 Y106.950 E0.01080
G1 X127.713 Y107.227 E0.01080
G1 X127.482 Y107.482 E0.01080
G1 X127.227 Y107.713 E0.01080
G1 X126.950 Y107.919 E0.01080
G1 X126.655 Y108.096 E0.01080
G1 X126.343 Y108.243 E0.01080
G1 X126.019 Y108.359 E0.01080
G1 X125.685 Y108.443 E0.01080
G1 X125.344 Y108.493 E0.01080
G1 X125.000 Y108.510 E0.01080
G1 X124.656 Y108.493 E0.01080
G1 X124.315 Y108.443 E0.01080
G1 X123.981 Y108.359 E0.01080
G1 X123.657 Y108.243 E0.01080
G1 X123.345 Y108.096 E0.01080
G1 X123.050 Y107.919 E0.01080
G1 X122.773 Y107.713 E0.01080
G1 X122.518 Y107.482 E0.01080
G1 X122.287 Y107.227 E0.01080
G1 X122.081 Y106.950 E0.01080
G1 X121.904 Y106.655 E0.01080
G1 X121.757 Y106.343 E0.01080
G1 X121.641 Y106.019 E0.01080
G1 X121.557 Y105.685 E0.01080
G1 X121.507 Y105.344 E0.01080
G1 X121.490 Y105.000 E0.01080
G1 X121.507 Y104.656 E0.01080
G1 X121.557 Y104.315 E0.01080
G1 X121.641 Y103.981 E0.01080
G1 X121.757 Y103.657 E0.01080
G1 X121.904 Y103.345 E0.01080
G1 X122.081 Y103.050 E0.01080
G1 X122.287 Y102.773 E0.01080
G1 X122.518 Y102.518 E0.01080
G1 X122.698 Y102.355 E0.00762
G1 X122.676 Y101.934 F10200.000
G1 X122.093 Y101.687
G1 F1800
G1 X122.549 Y101.331 E0.01813
G1 X122.920 Y101.109 E0.01358
G1 X123.312 Y100.924 E0.01358
G1 X123.719 Y100.778 E0.01358
G1 X124.139 Y100.673 E0.01357
G1 X124.564 Y100.610 E0.01346
G1 X125.066 Y100.591 E0.01577
G1 X125.432 Y100.609 E0.01149
G1 X125.861 Y100.673 E0.01358
G1 X126.281 Y100.778 E0.01357
G1 X126.688 Y100.924 E0.01358
G1 X127.080 Y101.109 E0.01358
G1 X127.451 Y101.331 E0.01358
G1 X127.799 Y101.589 E0.01357
G1 X128.120 Y101.880 E0.01358
G1 X128.411 Y102.201 E0.01358
G1 X128.669 Y102.549 E0.01357
G1 X128.891 Y102.920 E0.01358
G1 X129.076 Y103.312 E0.01358
G1 X129.222 Y103.719 E0.01358
G1 X129.327 Y104.139 E0.01358
G1 X129.391 Y104.568 E0.01358
G1 X129.412 Y105.000 E0.01358
G1 X129.391 Y105.432 E0.01358
G1 X129.327 Y105.861 E0.01358
G1 X129.222 Y106.281 E0.01358
G1 X129.076 Y106.688 E0.01358
G1 X128.891 Y107.080 E0.01358
G1 X128.669 Y107.451 E0.01358
G1 X128.411 Y107.799 E0.01357
G1 X128.120 Y108.120 E0.01358
G1 X127.799 Y108.411 E0.01358
G1 X127.451 Y108.669 E0.01357
G1 X127.080 Y108.891 E0.01358
G1 X126.688 Y109.076 E0.01358
G1 X126.281 Y109.222 E0.01358
G1 X125.861 Y109.327 E0.01357
G1 X125.432 Y109.391 E0.01358
G1 X125.000 Y109.412 E0.01358
G1 X124.568 Y109.391 E0.01358
G1 X124.139 Y109.327 E0.01358
G1 X123.719 Y109.222 E0.01357
G1 X123.312 Y109.076 E0.01358
G1 X122.920 Y108.891 E0.01358
G1 X122.549 Y108.669 E0.01358
G1 X122.201 Y108.411 E0.01358
G1 X121.880 Y108.120 E0.01358
G1 X121.589 Y107.799 E0.01358
G1 X121.331 Y107.451 E0.01358
G1 X121.109 Y107.080 E0.01358
G1 X120.924 Y106.688 E0.01358
G1 X120.778 Y106.281 E0.01358
G1 X120.673 Y105.861 E0.01358
G1 X120.609 Y105.432 E0.01358
G1 X120.588 Y105.000 E0.01358
G1 X120.609 Y104.568 E0.01358
G1 X120.673 Y104.139 E0.01358
G1 X120.778 Y103.719 E0.01358
G1 X120.924 Y103.312 E0.01358
G1 X121.109 Y102.920 E0.01358
G1 X121.331 Y102.549 E0.01358
G1 X121.589 Y102.201 E0.01358
G1 X121.880 Y101.880 E0.01358
G1 X122.048 Y101.728 E0.00712
G1 X121.961 Y101.297 F10200.000
G1 F1800
G1 X122.339 Y101.017 E0.01474
G1 X122.742 Y100.776 E0.01474
G1 X123.167 Y100.575 E0.01474
G1 X123.610 Y100.416 E0.01474
G1 X124.066 Y100.302 E0.01474
G1 X124.529 Y100.234 E0.01470
G1 X125.069 Y100.214 E0.01693
G1 X125.469 Y100.233 E0.01258
G1 X125.934 Y100.302 E0.01474
G1 X126.390 Y100.416 E0.01474
G1 X126.833 Y100.575 E0.01474
G1 X127.258 Y100.776 E0.01474
G1 X127.661 Y101.017 E0.01474
G1 X128.039 Y101.297 E0.01474
G1 X128.387 Y101.613 E0.01474
G1 X128.703 Y101.961 E0.01474
G1 X128.982 Y102.339 E0.01474
G1 X129.224 Y102.742 E0.01474
G1 X129.425 Y103.167 E0.01474
G1 X129.583 Y103.610 E0.01474
G1 X129.698 Y104.066 E0.01474
G1 X129.767 Y104.531 E0.01474
G1 X129.790 Y105.000 E0.01474
G1 X129.767 Y105.469 E0.01474
G1 X129.698 Y105.934 E0.01474
G1 X129.583 Y106.390 E0.01474
G1 X129.425 Y106.833 E0.01474
G1 X129.224 Y107.258 E0.01474
G1 X128.982 Y107.661 E0.01474
G1 X128.703 Y108.039 E0.01474
G1 X128.387 Y108.387 E0.01474
